; generated by Slic3r Prusa Edition 1.41.0 on 2018-09-13 at 10:07:23

; 

; external perimeters extrusion width = 0.45mm
; perimeters extrusion width = 0.45mm
; infill extrusion width = 0.45mm
; solid infill extrusion width = 0.45mm
; top infill extrusion width = 0.40mm
; first layer extrusion width = 0.60mm

M201 X9000 Y9000 Z500 E10000 ; sets maximum accelerations, mm/sec^2
M203 X500 Y500 Z12 E120 ; sets maximum feedrates, mm/sec
M204 P1500 R1500 T1500 ; sets acceleration (P, T) and retract acceleration (R), mm/sec^2
M205 X10.00 Y10.00 Z0.20 E2.50 ; sets the jerk limits, mm/sec
M205 S0 T0 ; sets the minimum extruding and travel feed rate, mm/sec
M107 ; disable fan
M190 S60 ; set bed temperature and wait for it to be reached
M104 S210 ; set temperature
G28 ; home all axes
G29 ; ABL
G1 Z5 F5000 ; lift nozzle
; Filament gcode
M109 S210 ; set temperature and wait for it to be reached
G21 ; set units to millimeters
G90 ; use absolute coordinates
M82 ; use absolute distances for extrusion
G92 E0 ; reset extrusion distance
G1 Z0.300 F9000.000 ; move to next layer (0)
G1 E-1.00000 F1800.00000 ; retract
G92 E0 ; reset extrusion distance
G1 X99.440 Y98.872 F9000.000 ; move to first skirt point
G1 E1.00000 F1800.00000 ; unretract
G1 F1500
G1 X100.364 Y98.054 E1.08247 ; skirt
G1 X101.742 Y97.061 E1.19594 ; skirt
G1 X102.810 Y96.441 E1.27843 ; skirt
G1 X104.327 Y95.737 E1.39016 ; skirt
G1 X106.582 Y95.049 E1.54769 ; skirt
G1 X108.320 Y94.746 E1.66553 ; skirt
G1 X110.009 Y94.650 E1.77856 ; skirt
G1 X111.667 Y94.743 E1.88945 ; skirt
G1 X112.912 Y94.929 E1.97360 ; skirt
G1 X114.549 Y95.341 E2.08637 ; skirt
G1 X115.747 Y95.772 E2.17139 ; skirt
G1 X117.381 Y96.550 E2.29232 ; skirt
G1 X118.366 Y97.134 E2.36883 ; skirt
G1 X119.765 Y98.157 E2.48461 ; skirt
G1 X121.017 Y99.315 E2.59852 ; skirt
G1 X121.916 Y100.325 E2.68887 ; skirt
G1 X122.869 Y101.638 E2.79722 ; skirt
G1 X123.818 Y103.340 E2.92740 ; skirt
G1 X124.247 Y104.288 E2.99696 ; skirt
G1 X124.694 Y105.570 E3.08765 ; skirt
G1 X125.074 Y107.106 E3.19331 ; skirt
G1 X125.255 Y108.313 E3.27485 ; skirt
G1 X125.350 Y110.002 E3.38790 ; skirt
G1 X125.293 Y111.221 E3.46939 ; skirt
G1 X125.007 Y113.211 E3.60372 ; skirt
G1 X124.597 Y114.748 E3.70998 ; skirt
G1 X124.012 Y116.260 E3.81826 ; skirt
G1 X123.397 Y117.489 E3.91009 ; skirt
G1 X122.484 Y118.930 E4.02407 ; skirt
G1 X121.735 Y119.887 E4.10523 ; skirt
G1 X120.560 Y121.128 E4.21939 ; skirt
G1 X119.636 Y121.947 E4.30187 ; skirt
G1 X118.258 Y122.939 E4.41534 ; skirt
G1 X117.190 Y123.559 E4.49782 ; skirt
G1 X115.673 Y124.263 E4.60955 ; skirt
G1 X113.425 Y124.950 E4.76662 ; skirt
G1 X111.680 Y125.254 E4.88493 ; skirt
G1 X109.998 Y125.350 E4.99749 ; skirt
G1 X108.322 Y125.256 E5.10961 ; skirt
G1 X107.119 Y125.076 E5.19085 ; skirt
G1 X105.457 Y124.661 E5.30530 ; skirt
G1 X104.259 Y124.231 E5.39032 ; skirt
G1 X102.625 Y123.453 E5.51125 ; skirt
G1 X101.634 Y122.866 E5.58822 ; skirt
G1 X100.235 Y121.843 E5.70399 ; skirt
G1 X98.983 Y120.685 E5.81791 ; skirt
G1 X98.084 Y119.675 E5.90826 ; skirt
G1 X97.131 Y118.362 E6.01661 ; skirt
G1 X96.182 Y116.660 E6.14679 ; skirt
G1 X95.753 Y115.712 E6.21636 ; skirt
G1 X95.308 Y114.436 E6.30657 ; skirt
G1 X94.931 Y112.919 E6.41101 ; skirt
G1 X94.746 Y111.692 E6.49394 ; skirt
G1 X94.650 Y109.998 E6.60729 ; skirt
G1 X94.707 Y108.779 E6.68878 ; skirt
G1 X94.993 Y106.789 E6.82311 ; skirt
G1 X95.403 Y105.252 E6.92937 ; skirt
G1 X95.988 Y103.740 E7.03765 ; skirt
G1 X96.603 Y102.511 E7.12948 ; skirt
G1 X97.516 Y101.070 E7.24346 ; skirt
G1 X98.265 Y100.113 E7.32461 ; skirt
G1 X99.399 Y98.916 E7.43477 ; skirt
G1 X99.787 Y99.284 F9000.000 ; move to first skirt point
G1 F1500
G1 X100.701 Y98.469 E7.51656 ; skirt
G1 X102.032 Y97.512 E7.62607 ; skirt
G1 X103.056 Y96.916 E7.70523 ; skirt
G1 X104.526 Y96.234 E7.81351 ; skirt
G1 X106.682 Y95.575 E7.96409 ; skirt
G1 X108.373 Y95.279 E8.07876 ; skirt
G1 X110.004 Y95.186 E8.18791 ; skirt
G1 X111.609 Y95.276 E8.29532 ; skirt
G1 X112.806 Y95.454 E8.37615 ; skirt
G1 X114.398 Y95.855 E8.48586 ; skirt
G1 X115.539 Y96.265 E8.56684 ; skirt
G1 X117.130 Y97.023 E8.68457 ; skirt
G1 X118.069 Y97.580 E8.75751 ; skirt
G1 X119.426 Y98.571 E8.86976 ; skirt
G1 X120.639 Y99.694 E8.98014 ; skirt
G1 X121.497 Y100.659 E9.06645 ; skirt
G1 X122.419 Y101.928 E9.17127 ; skirt
G1 X123.341 Y103.585 E9.29793 ; skirt
G1 X123.753 Y104.495 E9.36468 ; skirt
G1 X124.180 Y105.724 E9.45156 ; skirt
G1 X124.549 Y107.208 E9.55374 ; skirt
G1 X124.722 Y108.366 E9.63199 ; skirt
G1 X124.814 Y110.004 E9.74154 ; skirt
G1 X124.760 Y111.170 E9.81954 ; skirt
G1 X124.483 Y113.099 E9.94975 ; skirt
G1 X124.087 Y114.584 E10.05237 ; skirt
G1 X123.520 Y116.048 E10.15728 ; skirt
G1 X122.929 Y117.228 E10.24544 ; skirt
G1 X122.044 Y118.624 E10.35589 ; skirt
G1 X121.330 Y119.536 E10.43326 ; skirt
G1 X120.181 Y120.749 E10.54483 ; skirt
G1 X119.299 Y121.531 E10.62360 ; skirt
G1 X117.963 Y122.492 E10.73356 ; skirt
G1 X116.944 Y123.084 E10.81227 ; skirt
G1 X115.474 Y123.766 E10.92054 ; skirt
G1 X113.318 Y124.425 E11.07112 ; skirt
G1 X111.621 Y124.721 E11.18625 ; skirt
G1 X109.996 Y124.814 E11.29494 ; skirt
G1 X108.366 Y124.722 E11.40404 ; skirt
G1 X107.219 Y124.550 E11.48150 ; skirt
G1 X105.608 Y124.147 E11.59245 ; skirt
G1 X104.461 Y123.735 E11.67387 ; skirt
G1 X102.870 Y122.977 E11.79160 ; skirt
G1 X101.931 Y122.420 E11.86454 ; skirt
G1 X100.574 Y121.429 E11.97679 ; skirt
G1 X99.361 Y120.306 E12.08718 ; skirt
G1 X98.503 Y119.341 E12.17348 ; skirt
G1 X97.581 Y118.072 E12.27830 ; skirt
G1 X96.659 Y116.415 E12.40496 ; skirt
G1 X96.247 Y115.505 E12.47171 ; skirt
G1 X95.822 Y114.283 E12.55814 ; skirt
G1 X95.457 Y112.817 E12.65907 ; skirt
G1 X95.278 Y111.637 E12.73878 ; skirt
G1 X95.186 Y109.996 E12.84856 ; skirt
G1 X95.239 Y108.836 E12.92612 ; skirt
G1 X95.517 Y106.901 E13.05678 ; skirt
G1 X95.915 Y105.410 E13.15984 ; skirt
G1 X96.480 Y103.952 E13.26431 ; skirt
G1 X97.071 Y102.772 E13.35247 ; skirt
G1 X97.956 Y101.376 E13.46291 ; skirt
G1 X98.670 Y100.464 E13.54028 ; skirt
G1 X99.746 Y99.328 E13.64482 ; skirt
G1 X100.135 Y99.696 F9000.000 ; move to first skirt point
G1 F1500
G1 X101.034 Y98.889 E13.72550 ; skirt
G1 X102.327 Y97.959 E13.83193 ; skirt
G1 X103.303 Y97.391 E13.90735 ; skirt
G1 X104.732 Y96.729 E14.01259 ; skirt
G1 X106.782 Y96.101 E14.15584 ; skirt
G1 X108.433 Y95.812 E14.26780 ; skirt
G1 X110.005 Y95.722 E14.37302 ; skirt
G1 X111.558 Y95.809 E14.47693 ; skirt
G1 X112.700 Y95.979 E14.55402 ; skirt
G1 X114.241 Y96.367 E14.66021 ; skirt
G1 X115.331 Y96.759 E14.73760 ; skirt
G1 X116.879 Y97.496 E14.85214 ; skirt
G1 X117.772 Y98.026 E14.92149 ; skirt
G1 X119.086 Y98.986 E15.03021 ; skirt
G1 X120.260 Y100.072 E15.13705 ; skirt
G1 X121.082 Y100.998 E15.21978 ; skirt
G1 X121.973 Y102.225 E15.32105 ; skirt
G1 X122.868 Y103.836 E15.44418 ; skirt
G1 X123.257 Y104.696 E15.50723 ; skirt
G1 X123.667 Y105.877 E15.59075 ; skirt
G1 X124.023 Y107.311 E15.68946 ; skirt
G1 X124.189 Y108.423 E15.76457 ; skirt
G1 X124.278 Y109.999 E15.87003 ; skirt
G1 X124.228 Y111.107 E15.94413 ; skirt
G1 X123.959 Y112.989 E16.07112 ; skirt
G1 X123.575 Y114.426 E16.17048 ; skirt
G1 X123.026 Y115.843 E16.27201 ; skirt
G1 X122.461 Y116.967 E16.35608 ; skirt
G1 X121.604 Y118.318 E16.46297 ; skirt
G1 X120.925 Y119.186 E16.53659 ; skirt
G1 X119.803 Y120.370 E16.64556 ; skirt
G1 X118.966 Y121.111 E16.72019 ; skirt
G1 X117.673 Y122.041 E16.82661 ; skirt
G1 X116.697 Y122.609 E16.90203 ; skirt
G1 X115.274 Y123.269 E17.00683 ; skirt
G1 X113.218 Y123.899 E17.15052 ; skirt
G1 X111.567 Y124.188 E17.26248 ; skirt
G1 X110.001 Y124.278 E17.36727 ; skirt
G1 X108.899 Y124.234 E17.44095 ; skirt
G1 X107.357 Y124.031 E17.54486 ; skirt
G1 X105.842 Y123.657 E17.64909 ; skirt
G1 X104.776 Y123.285 E17.72454 ; skirt
G1 X103.172 Y122.530 E17.84294 ; skirt
G1 X102.341 Y122.049 E17.90713 ; skirt
G1 X101.024 Y121.103 E18.01542 ; skirt
G1 X100.072 Y120.260 E18.10038 ; skirt
G1 X99.007 Y119.112 E18.20500 ; skirt
G1 X98.105 Y117.894 E18.30626 ; skirt
G1 X96.788 Y115.411 E18.49401 ; skirt
G1 X96.346 Y114.166 E18.58225 ; skirt
G1 X95.988 Y112.739 E18.68055 ; skirt
G1 X95.812 Y111.595 E18.75791 ; skirt
G1 X95.722 Y110.001 E18.86454 ; skirt
G1 X95.772 Y108.893 E18.93864 ; skirt
G1 X96.041 Y107.011 E19.06563 ; skirt
G1 X96.423 Y105.580 E19.16456 ; skirt
G1 X96.974 Y104.157 E19.26652 ; skirt
G1 X97.539 Y103.033 E19.35059 ; skirt
G1 X98.396 Y101.682 E19.45748 ; skirt
G1 X99.075 Y100.814 E19.53110 ; skirt
G1 X100.094 Y99.740 E19.62998 ; skirt
G1 X100.482 Y100.108 F9000.000 ; move to first skirt point
G1 F1500
G1 X101.371 Y99.305 E19.71000 ; skirt
G1 X102.622 Y98.406 E19.81289 ; skirt
G1 X103.550 Y97.867 E19.88461 ; skirt
G1 X104.931 Y97.226 E19.98635 ; skirt
G1 X106.884 Y96.627 E20.12278 ; skirt
G1 X108.494 Y96.344 E20.23201 ; skirt
G1 X110.007 Y96.257 E20.33326 ; skirt
G1 X111.508 Y96.342 E20.43366 ; skirt
G1 X112.594 Y96.504 E20.50706 ; skirt
G1 X114.090 Y96.881 E20.61012 ; skirt
G1 X115.124 Y97.253 E20.68352 ; skirt
G1 X116.635 Y97.973 E20.79529 ; skirt
G1 X117.501 Y98.486 E20.86257 ; skirt
G1 X118.752 Y99.404 E20.96623 ; skirt
G1 X119.881 Y100.451 E21.06909 ; skirt
G1 X120.664 Y101.332 E21.14783 ; skirt
G1 X121.527 Y102.521 E21.24596 ; skirt
G1 X122.760 Y104.897 E21.42481 ; skirt
G1 X123.152 Y106.024 E21.50452 ; skirt
G1 X123.497 Y107.414 E21.60019 ; skirt
G1 X123.656 Y108.469 E21.67148 ; skirt
G1 X123.743 Y110.001 E21.77399 ; skirt
G1 X123.695 Y111.051 E21.84422 ; skirt
G1 X123.434 Y112.879 E21.96753 ; skirt
G1 X123.065 Y114.262 E22.06315 ; skirt
G1 X122.534 Y115.631 E22.16129 ; skirt
G1 X121.996 Y116.701 E22.24130 ; skirt
G1 X121.164 Y118.012 E22.34504 ; skirt
G1 X120.519 Y118.836 E22.41495 ; skirt
G1 X119.424 Y119.992 E22.52131 ; skirt
G1 X118.629 Y120.695 E22.59221 ; skirt
G1 X117.378 Y121.594 E22.69509 ; skirt
G1 X116.456 Y122.130 E22.76640 ; skirt
G1 X115.069 Y122.774 E22.86855 ; skirt
G1 X113.116 Y123.373 E23.00498 ; skirt
G1 X111.506 Y123.656 E23.11421 ; skirt
G1 X109.999 Y123.743 E23.21505 ; skirt
G1 X108.473 Y123.656 E23.31714 ; skirt
G1 X107.431 Y123.500 E23.38757 ; skirt
G1 X105.922 Y123.122 E23.49149 ; skirt
G1 X104.876 Y122.747 E23.56571 ; skirt
G1 X103.371 Y122.030 E23.67707 ; skirt
G1 X102.499 Y121.514 E23.74478 ; skirt
G1 X101.243 Y120.592 E23.84883 ; skirt
G1 X100.119 Y119.549 E23.95129 ; skirt
G1 X99.336 Y118.668 E24.03003 ; skirt
G1 X98.477 Y117.484 E24.12774 ; skirt
G1 X97.240 Y115.103 E24.30701 ; skirt
G1 X96.848 Y113.976 E24.38672 ; skirt
G1 X96.508 Y112.611 E24.48069 ; skirt
G1 X96.345 Y111.539 E24.55316 ; skirt
G1 X96.257 Y109.999 E24.65618 ; skirt
G1 X96.305 Y108.949 E24.72641 ; skirt
G1 X96.566 Y107.121 E24.84972 ; skirt
G1 X96.935 Y105.738 E24.94534 ; skirt
G1 X97.466 Y104.369 E25.04348 ; skirt
G1 X98.004 Y103.299 E25.12349 ; skirt
G1 X98.836 Y101.987 E25.22723 ; skirt
G1 X99.481 Y101.164 E25.29714 ; skirt
G1 X100.441 Y100.151 E25.39033 ; skirt
; PURGING FINISHED
G1 E24.39033 F1800.00000 ; retract
G92 E0 ; reset extrusion distance
G1 X105.377 Y104.527 F9000.000 ; move to first perimeter point
G1 E1.00000 F1800.00000 ; unretract
G1 F1500
G1 X105.786 Y104.193 E1.03525 ; perimeter
G1 X106.156 Y103.942 E1.06511 ; perimeter
G1 X106.543 Y103.713 E1.09522 ; perimeter
G1 X106.945 Y103.508 E1.12534 ; perimeter
G1 X107.663 Y103.220 E1.17700 ; perimeter
G1 X107.055 Y106.123 E1.37514 ; perimeter
G1 X108.242 Y105.558 E1.46296 ; perimeter
G1 X108.962 Y105.323 E1.51354 ; perimeter
G1 X109.480 Y102.841 E1.68293 ; perimeter
G1 X110.451 Y102.839 E1.74778 ; perimeter
G1 X110.899 Y102.882 E1.77789 ; perimeter
G1 X111.344 Y102.952 E1.80800 ; perimeter
G1 X112.094 Y103.141 E1.85966 ; perimeter
G1 X109.897 Y105.132 E2.05780 ; perimeter
G1 X111.189 Y105.373 E2.14562 ; perimeter
G1 X111.909 Y105.606 E2.19620 ; perimeter
G1 X113.777 Y103.912 E2.36464 ; perimeter
G1 X114.220 Y104.198 E2.39989 ; perimeter
G1 X114.573 Y104.472 E2.42975 ; perimeter
G1 X114.912 Y104.770 E2.45986 ; perimeter
G1 X115.230 Y105.088 E2.48998 ; perimeter
G1 X115.528 Y105.427 E2.52009 ; perimeter
G1 X115.726 Y105.682 E2.54166 ; perimeter
G1 X112.778 Y106.001 E2.73980 ; perimeter
G1 X113.681 Y106.956 E2.82762 ; perimeter
G1 X114.127 Y107.568 E2.87820 ; perimeter
G1 X116.634 Y107.295 E3.04664 ; perimeter
G1 X116.825 Y107.786 E3.08189 ; perimeter
G1 X116.949 Y108.216 E3.11175 ; perimeter
G1 X117.048 Y108.656 E3.14186 ; perimeter
G1 X117.118 Y109.101 E3.17198 ; perimeter
G1 X117.171 Y109.872 E3.22364 ; perimeter
G1 X114.598 Y108.397 E3.42178 ; perimeter
G1 X114.768 Y109.701 E3.50960 ; perimeter
G1 X114.769 Y110.458 E3.56018 ; perimeter
G1 X116.957 Y111.710 E3.72862 ; perimeter
G1 X116.822 Y112.221 E3.76387 ; perimeter
G1 X116.671 Y112.641 E3.79373 ; perimeter
G1 X116.492 Y113.055 E3.82384 ; perimeter
G1 X116.287 Y113.457 E3.85395 ; perimeter
G1 X115.876 Y114.112 E3.90562 ; perimeter
G1 X114.662 Y111.406 E4.10376 ; perimeter
G1 X114.033 Y112.560 E4.19158 ; perimeter
G1 X113.589 Y113.174 E4.24216 ; perimeter
G1 X114.623 Y115.473 E4.41060 ; perimeter
G1 X114.214 Y115.807 E4.44584 ; perimeter
G1 X113.844 Y116.058 E4.47571 ; perimeter
G1 X113.457 Y116.287 E4.50582 ; perimeter
G1 X113.055 Y116.492 E4.53593 ; perimeter
G1 X112.337 Y116.780 E4.58759 ; perimeter
G1 X112.945 Y113.877 E4.78573 ; perimeter
G1 X111.758 Y114.442 E4.87355 ; perimeter
G1 X111.038 Y114.677 E4.92414 ; perimeter
G1 X110.523 Y117.145 E5.09257 ; perimeter
G1 X109.996 Y117.175 E5.12782 ; perimeter
G1 X109.549 Y117.161 E5.15768 ; perimeter
G1 X109.101 Y117.118 E5.18780 ; perimeter
G1 X108.656 Y117.048 E5.21791 ; perimeter
G1 X107.906 Y116.859 E5.26957 ; perimeter
G1 X110.103 Y114.868 E5.46771 ; perimeter
G1 X108.811 Y114.627 E5.55553 ; perimeter
G1 X108.091 Y114.394 E5.60611 ; perimeter
G1 X106.223 Y116.088 E5.77455 ; perimeter
G1 X105.780 Y115.802 E5.80979 ; perimeter
G1 X105.427 Y115.528 E5.83966 ; perimeter
G1 X105.088 Y115.230 E5.86977 ; perimeter
G1 X104.770 Y114.912 E5.89988 ; perimeter
G1 X104.472 Y114.573 E5.92999 ; perimeter
G1 X104.274 Y114.318 E5.95157 ; perimeter
G1 X107.222 Y113.999 E6.14971 ; perimeter
G1 X106.319 Y113.044 E6.23753 ; perimeter
G1 X105.873 Y112.432 E6.28811 ; perimeter
G1 X103.366 Y112.705 E6.45655 ; perimeter
G1 X103.175 Y112.214 E6.49180 ; perimeter
G1 X103.051 Y111.784 E6.52166 ; perimeter
G1 X102.952 Y111.344 E6.55177 ; perimeter
G1 X102.882 Y110.899 E6.58188 ; perimeter
G1 X102.829 Y110.128 E6.63355 ; perimeter
G1 X105.402 Y111.603 E6.83169 ; perimeter
G1 X105.232 Y110.299 E6.91951 ; perimeter
G1 X105.231 Y109.542 E6.97009 ; perimeter
G1 X103.043 Y108.290 E7.13852 ; perimeter
G1 X103.178 Y107.779 E7.17377 ; perimeter
G1 X103.329 Y107.359 E7.20364 ; perimeter
G1 X103.508 Y106.945 E7.23375 ; perimeter
G1 X103.701 Y106.566 E7.26221 ; perimeter
G1 X103.942 Y106.155 E7.29400 ; perimeter
G1 X104.124 Y105.888 E7.31554 ; perimeter
G1 X105.338 Y108.594 E7.51368 ; perimeter
G1 X105.967 Y107.440 E7.60151 ; perimeter
G1 X106.411 Y106.826 E7.65209 ; perimeter
G1 X105.402 Y104.582 E7.81652 ; perimeter
G1 Z0.300 F9000.000 ; move to next layer (1)
M104 S205 ; set temperature
M140 S55 ; set bed temperature
; PURGING FINISHED
G1 F1200
G1 Z0.300 X105.201 Y104.413 E7.82453 ; perimeter
G1 Z0.302 X105.667 Y104.032 E7.84493 ; perimeter
G1 Z0.302 X106.048 Y103.773 E7.86052 ; perimeter
G1 Z0.303 X106.447 Y103.537 E7.87620 ; perimeter
G1 Z0.304 X106.860 Y103.327 E7.89188 ; perimeter
G1 Z0.305 X107.285 Y103.143 E7.90756 ; perimeter
G1 Z0.306 X107.755 Y102.974 E7.92447 ; perimeter
G1 Z0.312 X107.094 Y106.224 E8.03673 ; perimeter
G1 Z0.314 X107.995 Y105.733 E8.07150 ; perimeter
G1 Z0.314 X108.262 Y105.617 E8.08133 ; perimeter
G1 Z0.315 X108.840 Y105.424 E8.10196 ; perimeter
G1 Z0.320 X109.403 Y102.652 E8.19769 ; perimeter
G1 Z0.322 X110.265 Y102.634 E8.22688 ; perimeter
G1 Z0.323 X110.926 Y102.684 E8.24934 ; perimeter
G1 Z0.324 X111.382 Y102.756 E8.26495 ; perimeter
G1 Z0.325 X111.834 Y102.857 E8.28063 ; perimeter
G1 Z0.326 X112.314 Y102.996 E8.29754 ; perimeter
G1 Z0.332 X109.868 Y105.237 E8.40980 ; perimeter
G1 Z0.334 X110.887 Y105.369 E8.44456 ; perimeter
G1 Z0.334 X111.170 Y105.433 E8.45439 ; perimeter
