; generated by Slic3r Prusa Edition 1.40.1-beta+linux64 on 2018-06-29 at 14:44:44

; 

; external perimeters extrusion width = 0.86mm
; perimeters extrusion width = 0.86mm
; infill extrusion width = 0.45mm
; solid infill extrusion width = 0.45mm
; top infill extrusion width = 0.40mm
; first layer extrusion width = 0.50mm

M107
M190 S60 ; set bed temperature and wait for it to be reached
M104 S200 ; set temperature
G28 ; home all axes
G29 ; ABL
G1 Z5 F5000 ; lift nozzle
; Filament gcode
M109 S200 ; set temperature and wait for it to be reached
G21 ; set units to millimeters
G90 ; use absolute coordinates
M82 ; use absolute distances for extrusion
G92 E0
G1 Z0.250 F7800.000
G1 E-2.00000 F2400.00000
G92 E0
G1 Z0.650 F7800.000
G1 X85.614 Y93.906
G1 Z0.250
G1 E3.00000 F2400.00000
G1 F1800
G1 X87.135 Y92.794 E3.08740
G1 X88.469 Y92.084 E3.15753
G1 X89.857 Y91.567 E3.22624
G1 X91.747 Y91.163 E3.31589
G1 X93.231 Y91.066 E3.38489
G1 X94.415 Y91.128 E3.43990
G1 X95.539 Y91.300 E3.49263
G1 X113.314 Y94.887 E4.33387
G1 X114.639 Y95.241 E4.39754
G1 X115.527 Y95.575 E4.44153
G1 X118.305 Y96.947 E4.58527
G1 X119.672 Y97.923 E4.66320
G1 X121.018 Y99.150 E4.74767
G1 X123.142 Y101.836 E4.90657
G1 X123.892 Y103.188 E4.97828
G1 X124.447 Y104.446 E5.04206
G1 X124.723 Y105.295 E5.08348
G1 X125.332 Y108.017 E5.21288
G1 X125.472 Y110.114 E5.31038
G1 X125.354 Y111.838 E5.39054
G1 X124.764 Y114.529 E5.51836
G1 X124.523 Y115.357 E5.55838
G1 X124.038 Y116.501 E5.61602
G1 X122.967 Y118.420 E5.71802
G1 X121.213 Y120.629 E5.84886
G1 X120.604 Y121.266 E5.88971
G1 X119.524 Y122.191 E5.95571
G1 X117.992 Y123.233 E6.04166
G1 X115.247 Y124.547 E6.18282
G1 X113.460 Y125.080 E6.26936
G1 X111.594 Y125.383 E6.35705
G1 X108.545 Y125.390 E6.49850
G1 X106.743 Y125.124 E6.58301
G1 X105.314 Y124.745 E6.65159
G1 X104.224 Y124.306 E6.70612
G1 X102.114 Y123.288 E6.81479
G1 X101.416 Y122.872 E6.85250
G1 X86.357 Y112.067 E7.71233
G1 X85.441 Y111.323 E7.76709
G1 X84.602 Y110.485 E7.82211
G1 X83.676 Y109.313 E7.89140
G1 X82.708 Y107.635 E7.98130
G1 X82.164 Y106.263 E8.04976
G1 X81.796 Y104.791 E8.12014
G1 X81.605 Y102.917 E8.20751
G1 X81.673 Y101.400 E8.27797
G1 X82.080 Y99.399 E8.37272
G1 X82.603 Y97.967 E8.44342
G1 X83.313 Y96.625 E8.51387
G1 X84.525 Y94.981 E8.60863
G1 X85.572 Y93.948 E8.67682
G1 E6.67682 F2400.00000
G92 E0
G1 Z0.650 F7800.000
G1 X101.122 Y102.533
G1 Z0.250
G1 E3.00000 F2400.00000
G1 F1800
G1 X101.784 Y101.668 E3.05050
G1 X102.663 Y100.881 E3.10525
G1 X103.654 Y100.166 E3.16196
G1 X104.300 Y99.856 E3.19520
G1 X105.036 Y99.696 E3.23016
G1 X105.558 Y99.261 E3.26169
G1 X106.300 Y98.895 E3.30005
G1 X107.392 Y98.590 E3.35267
G1 X108.505 Y98.391 E3.40511
G1 X109.338 Y98.397 E3.44376
G1 X109.991 Y98.564 E3.47501
G1 X110.561 Y98.412 E3.50240
G1 X111.395 Y98.383 E3.54112
G1 X112.602 Y98.588 E3.59791
G1 X113.788 Y98.928 E3.65514
G1 X114.455 Y99.269 E3.68988
G1 X114.969 Y99.701 E3.72104
G1 X115.711 Y99.860 E3.75628
G1 X116.425 Y100.214 E3.79323
G1 X117.338 Y100.882 E3.84571
G1 X118.218 Y101.669 E3.90048
G1 X118.677 Y102.277 E3.93584
G1 X118.938 Y102.871 E3.96594
G1 X119.542 Y103.340 E4.00141
G1 X120.012 Y103.936 E4.03662
G1 X120.516 Y104.861 E4.08551
G1 X120.812 Y105.542 E4.11991
G1 X120.966 Y105.829 E4.13506
G1 X121.647 Y108.843 E4.27838
G1 X121.705 Y109.999 E4.33209
G1 X121.647 Y111.157 E4.38587
G1 X120.932 Y114.340 E4.53723
G1 X120.800 Y114.610 E4.55118
G1 X120.676 Y114.774 E4.56071
G1 X120.515 Y115.141 E4.57933
G1 X119.961 Y116.141 E4.63234
G1 X119.536 Y116.668 E4.66373
G1 X118.943 Y117.130 E4.69863
G1 X118.666 Y117.741 E4.72976
G1 X118.216 Y118.332 E4.76421
G1 X117.303 Y119.147 E4.82100
G1 X116.356 Y119.828 E4.87511
G1 X115.707 Y120.142 E4.90854
G1 X114.965 Y120.304 E4.94379
G1 X114.493 Y120.705 E4.97251
G1 X113.872 Y121.038 E5.00522
G1 X112.632 Y121.405 E5.06520
G1 X111.466 Y121.612 E5.12014
G1 X110.754 Y121.615 E5.15317
G1 X110.003 Y121.437 E5.18899
G1 X109.343 Y121.603 E5.22056
G1 X108.602 Y121.617 E5.25494
G1 X107.441 Y121.421 E5.30957
G1 X106.350 Y121.123 E5.36204
G1 X105.575 Y120.750 E5.40196
G1 X105.033 Y120.299 E5.43462
G1 X104.403 Y120.178 E5.46442
G1 X103.785 Y119.910 E5.49564
G1 X102.654 Y119.112 E5.55987
G1 X101.845 Y118.396 E5.61001
G1 X101.401 Y117.851 E5.64262
G1 X101.063 Y117.130 E5.67956
G1 X100.443 Y116.647 E5.71601
G1 X100.004 Y116.089 E5.74892
G1 X99.483 Y115.138 E5.79925
G1 X99.321 Y114.768 E5.81797
G1 X99.198 Y114.603 E5.82753
G1 X99.033 Y114.238 E5.84610
G1 X98.353 Y111.157 E5.99247
G1 X98.295 Y110.021 E6.04524
G1 X98.353 Y108.682 E6.10742
G1 X97.179 Y109.476 E6.17319
G1 X96.449 Y109.852 E6.21127
G1 X95.701 Y110.143 E6.24850
G1 X94.806 Y110.383 E6.29151
G1 X93.989 Y110.507 E6.32981
G1 X93.171 Y110.544 E6.36783
G1 X92.377 Y110.498 E6.40471
G1 X91.567 Y110.368 E6.44277
G1 X90.797 Y110.160 E6.47978
G1 X90.051 Y109.875 E6.51682
G1 X89.339 Y109.517 E6.55379
G1 X88.649 Y109.074 E6.59186
G1 X87.972 Y108.530 E6.63212
G1 X87.423 Y107.986 E6.66799
G1 X86.917 Y107.371 E6.70495
G1 X86.446 Y106.658 E6.74458
G1 X86.017 Y105.814 E6.78847
G1 X85.737 Y105.063 E6.82567
G1 X85.534 Y104.290 E6.86274
G1 X85.404 Y103.431 E6.90306
G1 X85.369 Y102.658 E6.93898
G1 X85.413 Y101.863 E6.97589
G1 X85.551 Y101.008 E7.01608
G1 X85.761 Y100.240 E7.05303
G1 X86.039 Y99.516 E7.08899
G1 X86.433 Y98.743 E7.12922
G1 X86.853 Y98.096 E7.16504
G1 X87.351 Y97.474 E7.20198
G1 X87.910 Y96.906 E7.23897
G1 X88.543 Y96.382 E7.27707
G1 X89.227 Y95.928 E7.31520
G1 X89.999 Y95.528 E7.35551
G1 X90.742 Y95.237 E7.39255
G1 X91.512 Y95.024 E7.42962
G1 X92.377 Y94.881 E7.47030
G1 X93.321 Y94.836 E7.51412
G1 X94.101 Y94.884 E7.55040
G1 X94.889 Y95.013 E7.58741
G1 X95.680 Y95.229 E7.62546
G1 X96.422 Y95.516 E7.66238
G1 X97.172 Y95.899 E7.70146
G1 X97.839 Y96.333 E7.73835
G1 X98.457 Y96.832 E7.77519
G1 X99.039 Y97.409 E7.81321
G1 X99.545 Y98.026 E7.85025
G1 X99.998 Y98.713 E7.88840
G1 X100.366 Y99.421 E7.92546
G1 X100.671 Y100.194 E7.96396
G1 X100.912 Y101.081 E8.00661
G1 X101.114 Y102.474 E8.07191
G1 X100.573 Y103.800 F7800.000
G1 F1800
G1 X101.419 Y103.156 E8.12126
G1 X101.707 Y102.505 E8.15423
G1 X102.098 Y101.986 E8.18442
G1 X102.952 Y101.221 E8.23759
G1 X103.866 Y100.560 E8.28993
G1 X104.468 Y100.270 E8.32093
G1 X105.239 Y100.110 E8.35745
G1 X105.783 Y99.647 E8.39061
G1 X106.441 Y99.319 E8.42473
G1 X107.483 Y99.027 E8.47491
G1 X108.523 Y98.837 E8.52396
G1 X109.305 Y98.843 E8.56024
G1 X109.993 Y99.028 E8.59329
G1 X110.607 Y98.856 E8.62284
G1 X111.344 Y98.827 E8.65707
G1 X112.514 Y99.026 E8.71216
G1 X113.642 Y99.351 E8.76661
G1 X114.225 Y99.652 E8.79705
G1 X114.766 Y100.116 E8.83009
G1 X115.542 Y100.274 E8.86683
G1 X116.178 Y100.586 E8.89971
G1 X117.049 Y101.222 E8.94971
G1 X117.903 Y101.986 E9.00290
G1 X118.303 Y102.522 E9.03389
G1 X118.574 Y103.156 E9.06587
G1 X119.211 Y103.640 E9.10304
G1 X119.630 Y104.167 E9.13423
G1 X120.120 Y105.066 E9.18173
G1 X120.409 Y105.736 E9.21559
G1 X120.558 Y106.013 E9.23018
G1 X121.207 Y108.921 E9.36839
G1 X121.258 Y110.009 E9.41896
G1 X121.207 Y111.079 E9.46863
G1 X120.520 Y114.168 E9.61543
G1 X120.411 Y114.389 E9.62688
G1 X120.292 Y114.539 E9.63579
G1 X120.119 Y114.936 E9.65586
G1 X119.601 Y115.876 E9.70565
G1 X119.206 Y116.366 E9.73483
G1 X118.581 Y116.845 E9.77139
G1 X118.293 Y117.495 E9.80436
G1 X117.902 Y118.014 E9.83454
G1 X117.032 Y118.792 E9.88870
G1 X116.144 Y119.435 E9.93955
G1 X115.538 Y119.728 E9.97074
G1 X114.760 Y119.890 E10.00763
G1 X114.260 Y120.324 E10.03834
G1 X113.682 Y120.633 E10.06876
G1 X112.541 Y120.968 E10.12391
G1 X111.444 Y121.166 E10.17560
G1 X110.781 Y121.168 E10.20640
G1 X109.999 Y120.976 E10.24373
G1 X109.306 Y121.157 E10.27695
G1 X108.615 Y121.171 E10.30905
G1 X107.528 Y120.983 E10.36023
G1 X106.488 Y120.698 E10.41022
G1 X105.797 Y120.361 E10.44591
G1 X105.231 Y119.881 E10.48033
G1 X104.556 Y119.758 E10.51217
G1 X103.985 Y119.510 E10.54108
G1 X102.940 Y118.770 E10.60047
G1 X102.176 Y118.096 E10.64772
G1 X101.793 Y117.634 E10.67558
G1 X101.420 Y116.840 E10.71626
G1 X100.776 Y116.348 E10.75388
G1 X100.367 Y115.828 E10.78455
G1 X99.880 Y114.933 E10.83181
G1 X99.706 Y114.534 E10.85204
G1 X99.589 Y114.386 E10.86075
G1 X99.464 Y114.117 E10.87456
G1 X98.793 Y111.080 E11.01884
G1 X98.742 Y110.010 E11.06851
G1 X98.788 Y108.958 E11.11737
G1 X99.042 Y107.787 E11.17298
G1 X98.748 Y107.627 E11.18850
G1 X98.212 Y108.167 E11.22381
G1 X97.612 Y108.658 E11.25976
G1 X96.965 Y109.084 E11.29574
G1 X96.276 Y109.440 E11.33171
G1 X95.550 Y109.723 E11.36783
G1 X94.726 Y109.944 E11.40742
G1 X93.957 Y110.062 E11.44354
G1 X93.184 Y110.098 E11.47942
G1 X92.436 Y110.056 E11.51417
G1 X91.671 Y109.933 E11.55009
G1 X90.945 Y109.739 E11.58496
G1 X90.222 Y109.462 E11.62091
G1 X89.551 Y109.124 E11.65575
G1 X88.900 Y108.705 E11.69168
G1 X88.278 Y108.205 E11.72868
G1 X87.746 Y107.677 E11.76348
G1 X87.269 Y107.097 E11.79832
G1 X86.838 Y106.444 E11.83461
G1 X86.431 Y105.645 E11.87619
G1 X86.165 Y104.939 E11.91120
G1 X85.969 Y104.189 E11.94717
G1 X85.850 Y103.399 E11.98422
G1 X85.816 Y102.649 E12.01906
G1 X85.858 Y101.900 E12.05386
G1 X85.985 Y101.114 E12.09082
G1 X86.182 Y100.389 E12.12566
G1 X86.452 Y99.687 E12.16055
G1 X86.813 Y98.977 E12.19753
G1 X87.221 Y98.348 E12.23228
G1 X87.691 Y97.763 E12.26711
G1 X88.219 Y97.227 E12.30199
G1 X88.817 Y96.734 E12.33795
G1 X89.464 Y96.307 E12.37392
G1 X90.173 Y95.939 E12.41097
G1 X90.873 Y95.664 E12.44587
G1 X91.620 Y95.457 E12.48184
G1 X92.412 Y95.326 E12.51908
G1 X93.306 Y95.282 E12.56060
G1 X94.062 Y95.329 E12.59576
G1 X94.804 Y95.452 E12.63063
G1 X95.551 Y95.656 E12.66655
G1 X96.250 Y95.928 E12.70135
G1 X96.939 Y96.280 E12.73725
G1 X97.568 Y96.689 E12.77204
G1 X98.151 Y97.157 E12.80676
G1 X98.701 Y97.701 E12.84265
G1 X99.179 Y98.283 E12.87756
G1 X99.607 Y98.929 E12.91354
G1 X99.965 Y99.617 E12.94951
G1 X100.243 Y100.323 E12.98469
G1 X100.478 Y101.186 E13.02622
G1 X100.596 Y101.957 E13.06239
G1 X100.632 Y102.730 E13.09827
G1 X100.576 Y103.740 E13.14520
G1 X100.145 Y103.440 F7800.000
G1 F1800
G1 X100.029 Y104.159 E13.17899
G1 X99.845 Y104.841 E13.21173
G1 X99.584 Y105.521 E13.24552
G1 X99.266 Y106.149 E13.27819
G1 X98.872 Y106.761 E13.31197
G1 X98.415 Y107.329 E13.34577
G1 X97.919 Y107.830 E13.37848
G1 X97.357 Y108.292 E13.41227
G1 X96.748 Y108.694 E13.44608
G1 X96.102 Y109.029 E13.47988
G1 X95.423 Y109.295 E13.51371
G1 X94.623 Y109.510 E13.55213
G1 X93.902 Y109.619 E13.58596
G1 X93.176 Y109.651 E13.61969
G1 X92.474 Y109.611 E13.65231
G1 X91.754 Y109.495 E13.68610
G1 X91.073 Y109.311 E13.71884
G1 X90.393 Y109.050 E13.75266
G1 X89.764 Y108.731 E13.78537
G1 X89.152 Y108.336 E13.81915
G1 X88.584 Y107.880 E13.85295
G1 X88.083 Y107.385 E13.88562
G1 X87.621 Y106.822 E13.91938
G1 X87.230 Y106.229 E13.95236
G1 X86.844 Y105.476 E13.99159
G1 X86.587 Y104.793 E14.02545
G1 X86.404 Y104.088 E14.05926
G1 X86.295 Y103.367 E14.09307
G1 X86.262 Y102.640 E14.12683
G1 X86.303 Y101.937 E14.15949
G1 X86.419 Y101.219 E14.19327
G1 X86.603 Y100.538 E14.22598
G1 X86.864 Y99.858 E14.25979
G1 X87.194 Y99.209 E14.29355
G1 X87.576 Y98.619 E14.32618
G1 X88.032 Y98.052 E14.35993
G1 X88.528 Y97.550 E14.39267
G1 X89.091 Y97.087 E14.42648
G1 X89.700 Y96.686 E14.46029
G1 X90.346 Y96.350 E14.49410
G1 X91.025 Y96.084 E14.52791
G1 X91.727 Y95.890 E14.56171
G1 X92.447 Y95.771 E14.59557
G1 X93.292 Y95.729 E14.63480
G1 X94.002 Y95.771 E14.66779
G1 X94.698 Y95.886 E14.70054
G1 X95.401 Y96.077 E14.73432
G1 X96.058 Y96.331 E14.76699
G1 X96.706 Y96.661 E14.80077
G1 X97.298 Y97.044 E14.83345
G1 X97.846 Y97.484 E14.86606
G1 X98.364 Y97.994 E14.89978
G1 X98.827 Y98.557 E14.93359
G1 X99.228 Y99.165 E14.96740
G1 X99.563 Y99.812 E15.00120
G1 X99.823 Y100.474 E15.03418
G1 X100.044 Y101.290 E15.07342
G1 X100.153 Y102.012 E15.10727
G1 X100.186 Y102.738 E15.14100
G1 X100.149 Y103.380 E15.17084
G1 X99.703 Y103.381 F7800.000
G1 F1800
G1 X99.595 Y104.054 E15.20247
G1 X99.417 Y104.713 E15.23411
G1 X99.172 Y105.349 E15.26573
G1 X98.874 Y105.935 E15.29627
G1 X98.503 Y106.508 E15.32791
G1 X98.075 Y107.039 E15.35955
G1 X97.611 Y107.507 E15.39013
G1 X97.083 Y107.939 E15.42178
G1 X96.513 Y108.314 E15.45342
G1 X95.907 Y108.627 E15.48506
G1 X95.272 Y108.875 E15.51670
G1 X94.543 Y109.070 E15.55171
G1 X93.869 Y109.173 E15.58335
G1 X93.189 Y109.205 E15.61494
G1 X92.532 Y109.168 E15.64543
G1 X91.859 Y109.061 E15.67706
G1 X91.201 Y108.883 E15.70870
G1 X90.564 Y108.638 E15.74035
G1 X89.977 Y108.338 E15.77093
G1 X89.404 Y107.968 E15.80258
G1 X88.873 Y107.540 E15.83422
G1 X88.406 Y107.076 E15.86475
G1 X87.974 Y106.549 E15.89638
G1 X87.609 Y105.994 E15.92718
G1 X87.257 Y105.307 E15.96301
G1 X87.016 Y104.668 E15.99466
G1 X86.843 Y104.009 E16.02630
G1 X86.740 Y103.334 E16.05794
G1 X86.708 Y102.654 E16.08956
G1 X86.745 Y101.996 E16.12010
G1 X86.853 Y101.323 E16.15175
G1 X87.024 Y100.686 E16.18233
G1 X87.267 Y100.049 E16.21397
G1 X87.576 Y99.441 E16.24560
G1 X87.932 Y98.888 E16.27610
G1 X88.358 Y98.357 E16.30769
G1 X88.837 Y97.872 E16.33933
G1 X89.365 Y97.440 E16.37097
G1 X89.935 Y97.065 E16.40261
G1 X90.541 Y96.752 E16.43425
G1 X91.176 Y96.504 E16.46589
G1 X91.834 Y96.324 E16.49753
G1 X92.507 Y96.214 E16.52918
G1 X93.278 Y96.175 E16.56501
G1 X93.941 Y96.214 E16.59582
G1 X94.614 Y96.324 E16.62746
G1 X95.272 Y96.504 E16.65908
G1 X95.885 Y96.742 E16.68961
G1 X96.493 Y97.053 E16.72126
G1 X97.045 Y97.412 E16.75183
G1 X97.557 Y97.824 E16.78233
G1 X98.042 Y98.303 E16.81392
G1 X98.474 Y98.830 E16.84556
G1 X98.848 Y99.400 E16.87720
G1 X99.161 Y100.006 E16.90884
G1 X99.403 Y100.625 E16.93965
G1 X99.605 Y101.370 E16.97547
G1 X99.708 Y102.045 E17.00713
G1 X99.740 Y102.725 E17.03872
G1 X99.706 Y103.321 E17.06643
G1 X99.260 Y103.323 F7800.000
G1 F1800
G1 X99.161 Y103.951 E17.09590
G1 X98.996 Y104.564 E17.12537
G1 X98.769 Y105.158 E17.15485
G1 X98.492 Y105.704 E17.18326
G1 X98.148 Y106.238 E17.21274
G1 X97.750 Y106.733 E17.24222
G1 X97.302 Y107.184 E17.27169
G1 X96.810 Y107.586 E17.30116
G1 X96.279 Y107.934 E17.33063
G1 X95.714 Y108.225 E17.36011
G1 X95.122 Y108.454 E17.38957
G1 X94.463 Y108.631 E17.42123
G1 X93.835 Y108.728 E17.45069
G1 X93.201 Y108.759 E17.48014
G1 X92.590 Y108.726 E17.50851
G1 X91.963 Y108.626 E17.53798
G1 X91.349 Y108.462 E17.56746
G1 X90.756 Y108.234 E17.59693
G1 X90.190 Y107.946 E17.62640
G1 X89.657 Y107.600 E17.65587
G1 X89.163 Y107.200 E17.68535
G1 X88.729 Y106.768 E17.71376
G1 X88.328 Y106.276 E17.74325
G1 X87.989 Y105.759 E17.77189
G1 X87.670 Y105.137 E17.80436
G1 X87.445 Y104.543 E17.83383
G1 X87.283 Y103.929 E17.86330
G1 X87.186 Y103.301 E17.89277
G1 X87.155 Y102.666 E17.92225
G1 X87.188 Y102.055 E17.95066
G1 X87.288 Y101.427 E17.98014
G1 X87.452 Y100.813 E18.00962
G1 X87.680 Y100.220 E18.03909
G1 X87.968 Y99.654 E18.06856
G1 X88.300 Y99.141 E18.09693
G1 X88.698 Y98.646 E18.12638
G1 X89.146 Y98.195 E18.15585
G1 X89.638 Y97.793 E18.18532
G1 X90.169 Y97.445 E18.21480
G1 X90.734 Y97.155 E18.24427
G1 X91.326 Y96.925 E18.27374
G1 X91.939 Y96.758 E18.30321
G1 X92.566 Y96.656 E18.33268
G1 X93.265 Y96.621 E18.36515
G1 X93.882 Y96.656 E18.39379
G1 X94.509 Y96.758 E18.42327
G1 X95.122 Y96.925 E18.45275
G1 X95.693 Y97.145 E18.48116
G1 X96.259 Y97.434 E18.51064
G1 X96.792 Y97.780 E18.54011
G1 X97.268 Y98.164 E18.56848
G1 X97.719 Y98.611 E18.59793
G1 X98.120 Y99.103 E18.62740
G1 X98.468 Y99.635 E18.65688
G1 X98.759 Y100.200 E18.68635
G1 X98.983 Y100.775 E18.71499
G1 X99.165 Y101.451 E18.74747
G1 X99.262 Y102.078 E18.77693
G1 X99.293 Y102.713 E18.80638
G1 X99.263 Y103.263 E18.83197
G1 X98.817 Y103.266 F7800.000
G1 F1800
G1 X98.726 Y103.848 E18.85928
G1 X98.575 Y104.416 E18.88659
G1 X98.365 Y104.966 E18.91389
G1 X98.099 Y105.491 E18.94120
G1 X97.780 Y105.986 E18.96850
G1 X97.410 Y106.444 E18.99580
G1 X96.995 Y106.861 E19.02311
G1 X96.538 Y107.232 E19.05041
G1 X96.045 Y107.554 E19.07772
G1 X95.521 Y107.822 E19.10502
G1 X94.972 Y108.034 E19.13232
G1 X94.382 Y108.192 E19.16069
G1 X93.801 Y108.283 E19.18798
G1 X93.213 Y108.312 E19.21529
G1 X92.648 Y108.283 E19.24154
G1 X92.066 Y108.192 E19.26885
G1 X91.497 Y108.041 E19.29616
G1 X90.947 Y107.831 E19.32346
G1 X90.422 Y107.565 E19.35077
G1 X89.928 Y107.245 E19.37807
G1 X89.470 Y106.876 E19.40538
G1 X89.053 Y106.460 E19.43268
