; generated by Slic3r Prusa Edition 1.40.1+linux64 on 2018-07-30 at 23:34:47

; 

; external perimeters extrusion width = 0.45mm
; perimeters extrusion width = 0.45mm
; infill extrusion width = 0.45mm
; solid infill extrusion width = 0.45mm
; top infill extrusion width = 0.40mm
; support material extrusion width = 0.40mm
; first layer extrusion width = 0.60mm

M107 ; disable fan
M190 S60 ; set bed temperature and wait for it to be reached
M104 S195 ; set temperature
G28 ; home all axes
G29 ; ABL
G1 Z5 F5000 ; lift nozzle
; Filament gcode
M109 S195 ; set temperature and wait for it to be reached
G21 ; set units to millimeters
G90 ; use absolute coordinates
M82 ; use absolute distances for extrusion
G92 E0 ; reset extrusion distance
G1 Z0.300 F9000.000 ; move to next layer (0)
G1 E-1.00000 F1800.00000 ; retract
G92 E0 ; reset extrusion distance
G1 X70.150 Y91.406 F9000.000 ; move to first skirt point
G1 E1.00000 F1800.00000 ; unretract
G1 F1500
G1 X71.472 Y90.736 E1.09897 ; skirt
G1 X72.895 Y90.325 E1.19793 ; skirt
G1 X74.363 Y90.188 E1.29644 ; skirt
G1 X108.364 Y90.438 E3.56792 ; skirt
G1 X145.720 Y93.314 E6.07088 ; skirt
G1 X146.706 Y93.460 E6.13753 ; skirt
G1 X147.673 Y93.732 E6.20464 ; skirt
G1 X148.604 Y94.129 E6.27222 ; skirt
G1 X149.476 Y94.641 E6.33979 ; skirt
G1 X150.275 Y95.261 E6.40736 ; skirt
G1 X150.993 Y95.984 E6.47540 ; skirt
G1 X153.826 Y99.760 E6.79079 ; skirt
G1 X154.381 Y100.783 E6.86853 ; skirt
G1 X154.781 Y101.883 E6.94673 ; skirt
G1 X154.991 Y102.858 E7.01337 ; skirt
G1 X155.075 Y103.852 E7.08002 ; skirt
G1 X155.076 Y115.863 E7.88243 ; skirt
G1 X154.958 Y117.153 E7.96894 ; skirt
G1 X154.631 Y118.406 E8.05545 ; skirt
G1 X154.181 Y119.441 E8.13088 ; skirt
G1 X153.591 Y120.396 E8.20584 ; skirt
G1 X151.202 Y123.416 E8.46310 ; skirt
G1 X150.449 Y124.211 E8.53622 ; skirt
G1 X149.496 Y124.959 E8.61719 ; skirt
G1 X148.439 Y125.553 E8.69816 ; skirt
G1 X147.304 Y125.977 E8.77913 ; skirt
G1 X146.117 Y126.222 E8.86010 ; skirt
G1 X113.987 Y129.137 E11.01539 ; skirt
G1 X74.323 Y129.383 E13.66519 ; skirt
G1 X73.012 Y129.267 E13.75308 ; skirt
G1 X71.746 Y128.937 E13.84052 ; skirt
G1 X70.784 Y128.526 E13.91040 ; skirt
G1 X69.880 Y127.986 E13.98075 ; skirt
G1 X69.061 Y127.335 E14.05063 ; skirt
G1 X68.331 Y126.577 E14.12097 ; skirt
G1 X67.712 Y125.733 E14.19086 ; skirt
G1 X67.208 Y124.809 E14.26120 ; skirt
G1 X66.831 Y123.825 E14.33155 ; skirt
G1 X66.591 Y122.807 E14.40143 ; skirt
G1 X66.483 Y121.538 E14.48656 ; skirt
G1 X66.501 Y97.529 E16.09045 ; skirt
G1 X66.738 Y96.074 E16.18896 ; skirt
G1 X67.245 Y94.682 E16.28793 ; skirt
G1 X68.000 Y93.415 E16.38643 ; skirt
G1 X68.983 Y92.307 E16.48540 ; skirt
G1 X70.103 Y91.443 E16.57989 ; skirt
G1 X70.423 Y91.867 F9000.000 ; move to first skirt point
G1 F1500
G1 X71.655 Y91.239 E16.67231 ; skirt
G1 X72.984 Y90.853 E16.76473 ; skirt
G1 X74.361 Y90.723 E16.85714 ; skirt
G1 X108.328 Y90.973 E19.12640 ; skirt
G1 X145.670 Y93.847 E21.62839 ; skirt
G1 X146.570 Y93.979 E21.68916 ; skirt
G1 X147.447 Y94.221 E21.74993 ; skirt
G1 X148.329 Y94.590 E21.81382 ; skirt
G1 X149.156 Y95.071 E21.87771 ; skirt
G1 X149.913 Y95.655 E21.94160 ; skirt
G1 X150.587 Y96.333 E22.00550 ; skirt
G1 X153.368 Y100.037 E22.31491 ; skirt
G1 X153.895 Y101.007 E22.38861 ; skirt
G1 X154.270 Y102.044 E22.46232 ; skirt
G1 X154.462 Y102.947 E22.52398 ; skirt
G1 X154.539 Y103.873 E22.58609 ; skirt
G1 X154.541 Y115.854 E23.38648 ; skirt
G1 X154.435 Y117.033 E23.46554 ; skirt
G1 X154.140 Y118.186 E23.54504 ; skirt
G1 X153.722 Y119.163 E23.61606 ; skirt
G1 X153.163 Y120.075 E23.68754 ; skirt
G1 X150.798 Y123.064 E23.94210 ; skirt
G1 X150.111 Y123.794 E24.00911 ; skirt
G1 X149.220 Y124.500 E24.08505 ; skirt
G1 X148.224 Y125.062 E24.16143 ; skirt
G1 X147.153 Y125.463 E24.23781 ; skirt
G1 X146.033 Y125.693 E24.31419 ; skirt
G1 X113.973 Y128.601 E26.46481 ; skirt
G1 X74.331 Y128.847 E29.11316 ; skirt
G1 X73.132 Y128.744 E29.19355 ; skirt
G1 X71.966 Y128.447 E29.27394 ; skirt
G1 X71.054 Y128.062 E29.34006 ; skirt
G1 X70.202 Y127.558 E29.40619 ; skirt
G1 X69.426 Y126.944 E29.47231 ; skirt
G1 X68.739 Y126.231 E29.53843 ; skirt
G1 X68.155 Y125.432 E29.60456 ; skirt
G1 X67.684 Y124.561 E29.67068 ; skirt
G1 X67.334 Y123.636 E29.73680 ; skirt
G1 X67.110 Y122.664 E29.80337 ; skirt
G1 X67.019 Y121.531 E29.87931 ; skirt
G1 X67.033 Y97.601 E31.47799 ; skirt
G1 X67.250 Y96.235 E31.57041 ; skirt
G1 X67.719 Y94.933 E31.66283 ; skirt
G1 X68.420 Y93.749 E31.75480 ; skirt
G1 X69.335 Y92.711 E31.84721 ; skirt
G1 X70.376 Y91.904 E31.93518 ; skirt
G1 X70.699 Y92.326 F9000.000 ; move to first skirt point
G1 F1500
G1 X71.845 Y91.740 E32.02114 ; skirt
G1 X73.080 Y91.380 E32.10711 ; skirt
G1 X74.361 Y91.259 E32.19308 ; skirt
G1 X108.301 Y91.508 E34.46048 ; skirt
G1 X145.614 Y94.380 E36.96059 ; skirt
G1 X146.430 Y94.497 E37.01566 ; skirt
G1 X147.232 Y94.713 E37.07116 ; skirt
G1 X148.060 Y95.054 E37.13095 ; skirt
G1 X148.841 Y95.505 E37.19118 ; skirt
G1 X149.555 Y96.054 E37.25140 ; skirt
G1 X150.191 Y96.694 E37.31163 ; skirt
G1 X152.914 Y100.322 E37.61468 ; skirt
G1 X153.409 Y101.232 E37.68392 ; skirt
G1 X153.760 Y102.208 E37.75316 ; skirt
G1 X153.935 Y103.046 E37.81038 ; skirt
G1 X154.004 Y103.893 E37.86717 ; skirt
G1 X154.005 Y115.839 E38.66523 ; skirt
G1 X153.912 Y116.917 E38.73748 ; skirt
G1 X153.649 Y117.966 E38.80972 ; skirt
G1 X153.256 Y118.897 E38.87725 ; skirt
G1 X152.734 Y119.755 E38.94435 ; skirt
G1 X150.390 Y122.717 E39.19672 ; skirt
G1 X149.769 Y123.380 E39.25737 ; skirt
G1 X148.934 Y124.046 E39.32876 ; skirt
G1 X148.004 Y124.574 E39.40015 ; skirt
G1 X147.004 Y124.949 E39.47154 ; skirt
G1 X145.950 Y125.163 E39.54335 ; skirt
G1 X113.951 Y128.066 E41.68983 ; skirt
G1 X74.338 Y128.312 E44.33626 ; skirt
G1 X73.248 Y128.221 E44.40937 ; skirt
G1 X72.186 Y127.956 E44.48247 ; skirt
G1 X71.329 Y127.601 E44.54441 ; skirt
G1 X70.524 Y127.129 E44.60679 ; skirt
G1 X69.795 Y126.555 E44.66873 ; skirt
G1 X69.147 Y125.883 E44.73110 ; skirt
G1 X68.597 Y125.129 E44.79347 ; skirt
G1 X68.159 Y124.312 E44.85542 ; skirt
G1 X67.835 Y123.443 E44.91736 ; skirt
G1 X67.632 Y122.532 E44.97973 ; skirt
G1 X67.554 Y121.524 E45.04726 ; skirt
G1 X67.566 Y97.663 E46.64128 ; skirt
G1 X67.761 Y96.398 E46.72682 ; skirt
G1 X68.192 Y95.185 E46.81279 ; skirt
G1 X68.841 Y94.081 E46.89833 ; skirt
G1 X69.689 Y93.113 E46.98430 ; skirt
G1 X70.652 Y92.363 E47.06584 ; skirt
G1 X70.980 Y92.783 F9000.000 ; move to first skirt point
G1 F1500
G1 X72.040 Y92.239 E47.14546 ; skirt
G1 X73.178 Y91.907 E47.22468 ; skirt
G1 X74.365 Y91.795 E47.30431 ; skirt
G1 X108.274 Y92.043 E49.56965 ; skirt
G1 X145.565 Y94.913 E52.06831 ; skirt
G1 X147.017 Y95.206 E52.16725 ; skirt
G1 X147.796 Y95.522 E52.22340 ; skirt
G1 X148.526 Y95.939 E52.27956 ; skirt
G1 X149.194 Y96.450 E52.33571 ; skirt
G1 X149.787 Y97.045 E52.39186 ; skirt
G1 X152.457 Y100.602 E52.68899 ; skirt
G1 X152.924 Y101.460 E52.75421 ; skirt
G1 X153.250 Y102.373 E52.81902 ; skirt
G1 X153.469 Y103.912 E52.92288 ; skirt
G1 X153.469 Y115.831 E53.71913 ; skirt
G1 X153.388 Y116.804 E53.78435 ; skirt
G1 X153.156 Y117.752 E53.84957 ; skirt
G1 X152.793 Y118.626 E53.91273 ; skirt
G1 X152.300 Y119.440 E53.97630 ; skirt
G1 X149.985 Y122.367 E54.22565 ; skirt
G1 X149.429 Y122.965 E54.28015 ; skirt
G1 X148.655 Y123.589 E54.34661 ; skirt
G1 X147.785 Y124.085 E54.41347 ; skirt
G1 X146.854 Y124.434 E54.47993 ; skirt
G1 X145.873 Y124.633 E54.54680 ; skirt
G1 X113.936 Y127.530 E56.68913 ; skirt
G1 X74.345 Y127.776 E59.33406 ; skirt
G1 X73.360 Y127.696 E59.40011 ; skirt
G1 X72.399 Y127.462 E59.46615 ; skirt
G1 X71.598 Y127.136 E59.52395 ; skirt
G1 X70.844 Y126.699 E59.58217 ; skirt
G1 X70.163 Y126.166 E59.63997 ; skirt
G1 X69.557 Y125.539 E59.69818 ; skirt
G1 X69.048 Y124.839 E59.75598 ; skirt
G1 X68.637 Y124.071 E59.81420 ; skirt
G1 X68.339 Y123.259 E59.87200 ; skirt
G1 X68.154 Y122.407 E59.93021 ; skirt
G1 X68.090 Y121.526 E59.98925 ; skirt
G1 X68.099 Y97.716 E61.57985 ; skirt
G1 X68.276 Y96.544 E61.65906 ; skirt
G1 X68.671 Y95.426 E61.73828 ; skirt
G1 X69.270 Y94.402 E61.81749 ; skirt
G1 X70.050 Y93.509 E61.89671 ; skirt
G1 X70.932 Y92.820 E61.97150 ; skirt
G1 E60.97150 F1800.00000 ; retract
G92 E0 ; reset extrusion distance
G1 X74.358 Y98.062 F9000.000 ; move to first support material point
G1 E1.00000 F1800.00000 ; unretract
G1 F1500
G1 X74.358 Y108.959 E1.72795 ; support material
G1 X75.429 Y108.959 E1.79951 ; support material
G1 X75.429 Y98.304 E2.51136 ; support material
G1 X76.500 Y98.304 E2.58292 ; support material
G1 X76.500 Y103.625 E2.93841 ; support material
G1 X77.571 Y103.625 E3.00998 ; support material
G1 X77.571 Y98.304 E3.36547 ; support material
G1 X78.642 Y98.304 E3.43703 ; support material
G1 X78.642 Y103.625 E3.79252 ; support material
G1 X79.714 Y103.625 E3.86409 ; support material
G1 X79.714 Y98.304 E4.21958 ; support material
G1 X80.785 Y98.304 E4.29114 ; support material
G1 X80.785 Y103.625 E4.64663 ; support material
G1 X81.856 Y103.625 E4.71820 ; support material
G1 X81.856 Y98.304 E5.07369 ; support material
G1 X82.927 Y98.304 E5.14525 ; support material
G1 X82.927 Y103.625 E5.50074 ; support material
G1 X83.999 Y103.625 E5.57231 ; support material
G1 X83.999 Y98.304 E5.92780 ; support material
G1 X85.070 Y98.304 E5.99936 ; support material
G1 X85.070 Y103.625 E6.35485 ; support material
G1 X86.141 Y103.625 E6.42642 ; support material
G1 X86.141 Y98.304 E6.78191 ; support material
G1 X87.212 Y98.304 E6.85347 ; support material
G1 X87.212 Y103.625 E7.20896 ; support material
G1 X88.284 Y103.625 E7.28053 ; support material
G1 X88.284 Y98.304 E7.63602 ; support material
G1 X89.355 Y98.304 E7.70758 ; support material
G1 X89.355 Y103.625 E8.06307 ; support material
G1 X90.426 Y103.625 E8.13463 ; support material
G1 X90.426 Y98.304 E8.49012 ; support material
G1 X91.497 Y98.304 E8.56169 ; support material
G1 X91.497 Y103.625 E8.91718 ; support material
G1 X92.569 Y103.625 E8.98874 ; support material
G1 X92.569 Y98.304 E9.34423 ; support material
G1 X93.640 Y98.304 E9.41580 ; support material
G1 X93.640 Y103.625 E9.77129 ; support material
G1 X94.711 Y103.625 E9.84285 ; support material
G1 X94.711 Y98.304 E10.19834 ; support material
G1 X95.782 Y98.304 E10.26991 ; support material
G1 X95.782 Y103.625 E10.62540 ; support material
G1 X96.854 Y103.625 E10.69696 ; support material
G1 X96.854 Y98.304 E11.05246 ; support material
G1 X97.925 Y98.304 E11.12402 ; support material
G1 X97.925 Y106.482 E11.67038 ; support material
G1 X98.996 Y106.482 E11.74195 ; support material
G1 X98.996 Y98.304 E12.28830 ; support material
G1 X100.067 Y98.304 E12.35987 ; support material
G1 X100.067 Y106.482 E12.90623 ; support material
G1 X101.138 Y106.482 E12.97779 ; support material
G1 X101.138 Y98.304 E13.52416 ; support material
G1 X102.210 Y98.304 E13.59572 ; support material
G1 X102.210 Y106.723 E14.15818 ; support material
G1 E13.15818 F1800.00000 ; retract
G92 E0 ; reset extrusion distance
G1 X102.031 Y112.803 F9000.000 ; move to first support material interface point
G1 E1.00000 F1800.00000 ; unretract
G1 F1500
G1 X102.031 Y106.928 E1.24593 ; support material interface
G1 X101.674 Y106.928 E1.26087 ; support material interface
G1 X101.674 Y112.643 E1.50007 ; support material interface
G1 X101.317 Y112.643 E1.51502 ; support material interface
G1 X101.317 Y106.928 E1.75422 ; support material interface
G1 X100.960 Y106.928 E1.76917 ; support material interface
G1 X100.960 Y112.643 E2.00837 ; support material interface
G1 X100.603 Y112.643 E2.02331 ; support material interface
G1 X100.603 Y106.928 E2.26251 ; support material interface
G1 X100.246 Y106.928 E2.27746 ; support material interface
G1 X100.246 Y112.643 E2.51666 ; support material interface
G1 X99.889 Y112.643 E2.53161 ; support material interface
G1 X99.889 Y106.928 E2.77081 ; support material interface
G1 X99.532 Y106.928 E2.78575 ; support material interface
G1 X99.532 Y112.643 E3.02495 ; support material interface
G1 X99.357 Y112.643 E3.03227 ; support material interface
G1 X99.357 Y115.500 E3.15187 ; support material interface
G1 X99.174 Y115.500 E3.15950 ; support material interface
G1 X99.174 Y106.928 E3.51830 ; support material interface
G1 X98.817 Y106.928 E3.53324 ; support material interface
G1 X98.817 Y115.500 E3.89204 ; support material interface
G1 X98.460 Y115.500 E3.90699 ; support material interface
G1 X98.460 Y106.928 E4.26579 ; support material interface
G1 X98.103 Y106.928 E4.28073 ; support material interface
G1 X98.103 Y115.500 E4.63953 ; support material interface
G1 X97.746 Y115.500 E4.65448 ; support material interface
G1 X97.746 Y106.928 E5.01328 ; support material interface
G1 X97.389 Y106.928 E5.02822 ; support material interface
G1 X97.389 Y115.500 E5.38702 ; support material interface
G1 X97.032 Y115.500 E5.40197 ; support material interface
G1 X97.032 Y106.928 E5.76077 ; support material interface
G1 X96.675 Y106.928 E5.77571 ; support material interface
G1 X96.675 Y115.500 E6.13451 ; support material interface
G1 X96.318 Y115.500 E6.14946 ; support material interface
G1 X96.318 Y104.071 E6.62785 ; support material interface
G1 X95.961 Y104.071 E6.64280 ; support material interface
G1 X95.961 Y115.500 E7.12120 ; support material interface
G1 X95.604 Y115.500 E7.13614 ; support material interface
G1 X95.604 Y104.071 E7.61454 ; support material interface
G1 X95.247 Y104.071 E7.62949 ; support material interface
G1 X95.247 Y115.500 E8.10788 ; support material interface
G1 X94.890 Y115.500 E8.12283 ; support material interface
G1 X94.890 Y110.680 E8.32457 ; support material interface
G1 X94.816 Y110.923 E8.33517 ; support material interface
G1 X94.775 Y110.996 E8.33869 ; support material interface
G1 X94.532 Y111.263 E8.35379 ; support material interface
G1 X94.532 Y115.500 E8.53114 ; support material interface
G1 X94.175 Y115.500 E8.54608 ; support material interface
G1 X94.175 Y111.657 E8.70694 ; support material interface
G1 X94.023 Y111.825 E8.71642 ; support material interface
G1 X93.818 Y111.968 E8.72689 ; support material interface
G1 X93.818 Y115.500 E8.87473 ; support material interface
G1 X93.461 Y115.500 E8.88968 ; support material interface
G1 X93.461 Y112.205 E9.02759 ; support material interface
G1 X93.104 Y112.442 E9.04554 ; support material interface
G1 X93.104 Y115.500 E9.17353 ; support material interface
G1 X92.747 Y115.500 E9.18847 ; support material interface
G1 X92.747 Y112.678 E9.30659 ; support material interface
G1 X92.390 Y112.849 E9.32316 ; support material interface
G1 X92.390 Y115.500 E9.43410 ; support material interface
G1 X92.033 Y115.500 E9.44905 ; support material interface
G1 X92.033 Y113.020 E9.55287 ; support material interface
G1 X91.676 Y113.190 E9.56943 ; support material interface
G1 X91.676 Y115.500 E9.66612 ; support material interface
G1 X91.319 Y115.500 E9.68106 ; support material interface
G1 X91.319 Y113.360 E9.77063 ; support material interface
G1 X90.962 Y113.527 E9.78714 ; support material interface
G1 X90.962 Y115.500 E9.86969 ; support material interface
G1 X90.605 Y115.500 E9.88464 ; support material interface
G1 X90.605 Y113.661 E9.96162 ; support material interface
G1 X90.247 Y113.794 E9.97757 ; support material interface
G1 X90.247 Y115.500 E10.04898 ; support material interface
G1 X89.890 Y115.500 E10.06392 ; support material interface
G1 X89.890 Y113.927 E10.12975 ; support material interface
G1 X89.533 Y114.047 E10.14552 ; support material interface
G1 X89.533 Y115.500 E10.20631 ; support material interface
G1 X89.176 Y115.500 E10.22126 ; support material interface
G1 X89.176 Y114.047 E10.28205 ; support material interface
G1 X88.819 Y114.047 E10.29700 ; support material interface
G1 X88.819 Y115.500 E10.35779 ; support material interface
G1 X88.462 Y115.500 E10.37274 ; support material interface
G1 X88.462 Y114.047 E10.43353 ; support material interface
G1 X88.105 Y114.047 E10.44848 ; support material interface
G1 X88.105 Y115.500 E10.50927 ; support material interface
G1 X87.748 Y115.500 E10.52422 ; support material interface
