; generated by Slic3r 1.3.1-dev (Build (Unknown revision)) on 2019-11-13 at 20:14:32

; external perimeters extrusion width = 0.44mm (4.51mm^3/s)
; perimeters extrusion width = 0.48mm (10.05mm^3/s)
; infill extrusion width = 0.48mm (10.05mm^3/s)
; solid infill extrusion width = 0.48mm (2.51mm^3/s)
; top infill extrusion width = 0.48mm (1.88mm^3/s)
; support material extrusion width = 0.44mm (6.76mm^3/s)

M190 S75 ; set bed temperature and wait for it to be reached
M104 S260 ; set temperature
G28 ; home all axes
G29 ; autolevel
G1 Z5 F5000 ; lift nozzle

; Filament gcode

M109 S260 ; set temperature and wait for it to be reached
G21 ; set units to millimeters
G90 ; use absolute coordinates
M82 ; use absolute distances for extrusion
G92 E0 ; reset extrusion distance
G92 E0 ; reset extrusion distance
G1 Z0.200 F6000.000 ; move to next layer (0)
G1 E-4.00000 F2100.00000 ; retract extruder 0
G92 E0 ; reset extrusion distance
G1 X82.493 Y65.827 F6000.000 ; move to first skirt point
G1 E4.00000 F2100.00000 ; unretract extruder 0
G1 F1800.000
G1 X84.343 Y63.504 E4.06612 ; skirt
G1 X86.743 Y61.756 E4.13225 ; skirt
G1 X89.522 Y60.710 E4.19837 ; skirt
G1 X92.000 Y60.429 E4.25390 ; skirt
G1 X128.000 Y60.429 E5.05557 ; skirt
G1 X130.943 Y60.827 E5.12169 ; skirt
G1 X133.673 Y61.993 E5.18781 ; skirt
G1 X135.996 Y63.843 E5.25393 ; skirt
G1 X137.744 Y66.243 E5.32006 ; skirt
G1 X138.790 Y69.022 E5.38618 ; skirt
G1 X139.071 Y71.500 E5.44171 ; skirt
G1 X139.071 Y148.500 E7.15638 ; skirt
G1 X138.673 Y151.443 E7.22251 ; skirt
G1 X137.507 Y154.173 E7.28863 ; skirt
G1 X135.657 Y156.496 E7.35475 ; skirt
G1 X133.257 Y158.244 E7.42088 ; skirt
G1 X130.478 Y159.290 E7.48700 ; skirt
G1 X128.000 Y159.571 E7.54253 ; skirt
G1 X92.000 Y159.571 E8.34420 ; skirt
G1 X89.057 Y159.173 E8.41032 ; skirt
G1 X86.327 Y158.007 E8.47644 ; skirt
G1 X84.004 Y156.157 E8.54256 ; skirt
G1 X82.256 Y153.757 E8.60869 ; skirt
G1 X81.210 Y150.978 E8.67481 ; skirt
G1 X80.929 Y148.500 E8.73034 ; skirt
G1 X80.929 Y71.500 E10.44501 ; skirt
G1 X81.327 Y68.557 E10.51114 ; skirt
G1 X82.469 Y65.882 E10.57592 ; skirt
G1 X82.849 Y65.928 F6000.000 ; move to first skirt point
G1 F1800.000
G1 X84.694 Y63.663 E10.64097 ; skirt
G1 X87.082 Y61.981 E10.70601 ; skirt
G1 X89.835 Y61.007 E10.77105 ; skirt
G1 X92.000 Y60.786 E10.81951 ; skirt
G1 X128.000 Y60.786 E11.62118 ; skirt
G1 X130.894 Y61.184 E11.68622 ; skirt
G1 X133.572 Y62.349 E11.75126 ; skirt
G1 X135.837 Y64.194 E11.81630 ; skirt
G1 X137.519 Y66.582 E11.88135 ; skirt
G1 X138.493 Y69.335 E11.94639 ; skirt
G1 X138.714 Y71.500 E11.99485 ; skirt
G1 X138.714 Y148.500 E13.70952 ; skirt
G1 X138.316 Y151.394 E13.77457 ; skirt
G1 X137.151 Y154.072 E13.83961 ; skirt
G1 X135.306 Y156.337 E13.90465 ; skirt
G1 X132.918 Y158.019 E13.96969 ; skirt
G1 X130.165 Y158.993 E14.03474 ; skirt
G1 X128.000 Y159.214 E14.08320 ; skirt
G1 X92.000 Y159.214 E14.88486 ; skirt
G1 X89.106 Y158.816 E14.94990 ; skirt
G1 X86.428 Y157.651 E15.01495 ; skirt
G1 X84.163 Y155.806 E15.07999 ; skirt
G1 X82.481 Y153.418 E15.14503 ; skirt
G1 X81.507 Y150.665 E15.21007 ; skirt
G1 X81.286 Y148.500 E15.25853 ; skirt
G1 X81.286 Y71.500 E16.97321 ; skirt
G1 X81.684 Y68.606 E17.03825 ; skirt
G1 X82.825 Y65.983 E17.10196 ; skirt
G1 X83.205 Y66.031 F6000.000 ; move to first skirt point
G1 F1800.000
G1 X85.044 Y63.826 E17.16590 ; skirt
G1 X87.419 Y62.211 E17.22985 ; skirt
G1 X90.145 Y61.310 E17.29379 ; skirt
G1 X92.000 Y61.143 E17.33526 ; skirt
G1 X128.000 Y61.143 E18.13693 ; skirt
G1 X130.844 Y61.541 E18.20087 ; skirt
G1 X133.469 Y62.705 E18.26482 ; skirt
G1 X135.674 Y64.544 E18.32876 ; skirt
G1 X137.289 Y66.919 E18.39270 ; skirt
G1 X138.190 Y69.645 E18.45665 ; skirt
G1 X138.357 Y71.500 E18.49812 ; skirt
G1 X138.357 Y148.500 E20.21279 ; skirt
G1 X137.959 Y151.344 E20.27674 ; skirt
G1 X136.795 Y153.969 E20.34068 ; skirt
G1 X134.956 Y156.174 E20.40463 ; skirt
G1 X132.581 Y157.789 E20.46857 ; skirt
G1 X129.855 Y158.690 E20.53251 ; skirt
G1 X128.000 Y158.857 E20.57399 ; skirt
G1 X92.000 Y158.857 E21.37565 ; skirt
G1 X89.156 Y158.459 E21.43959 ; skirt
G1 X86.531 Y157.295 E21.50354 ; skirt
G1 X84.326 Y155.456 E21.56748 ; skirt
G1 X82.711 Y153.081 E21.63143 ; skirt
G1 X81.810 Y150.355 E21.69537 ; skirt
G1 X81.643 Y148.500 E21.73684 ; skirt
G1 X81.643 Y71.500 E23.45152 ; skirt
G1 X82.041 Y68.656 E23.51546 ; skirt
G1 X83.180 Y66.086 E23.57807 ; skirt
G1 X84.086 Y66.992 F6000.000 ; move to first brim point
G1 F1800.000
G1 X88.362 Y62.716 E23.71274 ; brim
G1 X131.638 Y62.716 E24.67662 ; brim
G1 X136.784 Y67.862 E24.83869 ; brim
G1 X136.784 Y152.138 E26.71574 ; brim
G1 X131.638 Y157.284 E26.87782 ; brim
G1 X88.362 Y157.284 E27.84170 ; brim
G1 X83.216 Y152.138 E28.00377 ; brim
G1 X83.216 Y67.862 E29.88082 ; brim
G1 X84.044 Y67.034 E29.90689 ; brim
G1 X84.296 Y67.287 F6000.000 ; move to first brim point
G1 F1800.000
G1 X88.509 Y63.073 E30.03960 ; brim
G1 X131.491 Y63.073 E30.99689 ; brim
G1 X136.427 Y68.009 E31.15238 ; brim
G1 X136.427 Y151.991 E33.02284 ; brim
G1 X131.491 Y156.927 E33.17832 ; brim
G1 X88.509 Y156.927 E34.13561 ; brim
G1 X83.573 Y151.991 E34.29109 ; brim
G1 X83.573 Y68.009 E36.16155 ; brim
G1 X84.254 Y67.329 E36.18299 ; brim
G1 X84.506 Y67.582 F6000.000 ; move to first brim point
G1 F1800.000
G1 X88.657 Y63.430 E36.31374 ; brim
G1 X131.343 Y63.430 E37.26444 ; brim
G1 X136.070 Y68.157 E37.41334 ; brim
G1 X136.070 Y151.843 E39.27721 ; brim
G1 X131.343 Y156.570 E39.42610 ; brim
G1 X88.657 Y156.570 E40.37680 ; brim
G1 X83.930 Y151.843 E40.52570 ; brim
G1 X83.930 Y68.157 E42.38957 ; brim
G1 X84.464 Y67.624 E42.40637 ; brim
G1 X84.716 Y67.876 F6000.000 ; move to first brim point
G1 F1800.000
G1 X88.805 Y63.787 E42.53517 ; brim
G1 X131.195 Y63.787 E43.47928 ; brim
G1 X135.713 Y68.305 E43.62158 ; brim
G1 X135.713 Y151.695 E45.47887 ; brim
G1 X131.195 Y156.213 E45.62117 ; brim
G1 X88.805 Y156.213 E46.56528 ; brim
G1 X84.287 Y151.695 E46.70759 ; brim
G1 X84.287 Y68.305 E48.56487 ; brim
G1 X84.674 Y67.919 E48.57704 ; brim
G1 X84.926 Y68.171 F6000.000 ; move to first brim point
G1 F1800.000
G1 X88.953 Y64.145 E48.70388 ; brim
G1 X131.047 Y64.145 E49.64140 ; brim
G1 X135.355 Y68.453 E49.77711 ; brim
G1 X135.355 Y151.547 E51.62780 ; brim
G1 X131.047 Y155.855 E51.76352 ; brim
G1 X88.953 Y155.855 E52.70104 ; brim
G1 X84.645 Y151.547 E52.83676 ; brim
G1 X84.645 Y68.453 E54.68745 ; brim
G1 X84.884 Y68.214 E54.69499 ; brim
G1 X85.137 Y68.466 F6000.000 ; move to first brim point
G1 F1800.000
G1 X89.101 Y64.502 E54.81987 ; brim
G1 X130.899 Y64.502 E55.75080 ; brim
G1 X134.998 Y68.601 E55.87993 ; brim
G1 X134.998 Y151.399 E57.72403 ; brim
G1 X130.899 Y155.498 E57.85315 ; brim
G1 X89.101 Y155.498 E58.78408 ; brim
G1 X85.002 Y151.399 E58.91321 ; brim
G1 X85.002 Y68.601 E60.75731 ; brim
G1 X85.094 Y68.509 E60.76022 ; brim
G1 X85.359 Y68.749 F6000.000 ; move to first brim point
G1 F1800.000
G1 X89.249 Y64.859 E60.88276 ; brim
G1 X130.751 Y64.859 E61.80710 ; brim
G1 X134.641 Y68.749 E61.92964 ; brim
G1 X134.641 Y151.251 E63.76715 ; brim
G1 X130.751 Y155.141 E63.88968 ; brim
G1 X89.249 Y155.141 E64.81403 ; brim
G1 X85.359 Y151.251 E64.93656 ; brim
G1 X85.359 Y68.809 E66.77274 ; brim
G1 X85.716 Y68.897 F6000.000 ; move to first brim point
G1 F1800.000
G1 X89.397 Y65.216 E66.88868 ; brim
G1 X130.603 Y65.216 E67.80644 ; brim
G1 X134.284 Y68.897 E67.92238 ; brim
G1 X134.284 Y151.103 E69.75330 ; brim
G1 X130.603 Y154.784 E69.86925 ; brim
G1 X89.397 Y154.784 E70.78700 ; brim
G1 X85.716 Y151.103 E70.90295 ; brim
G1 X85.716 Y68.957 E72.73253 ; brim
G1 X86.073 Y69.045 F6000.000 ; move to first brim point
G1 F1800.000
G1 X89.545 Y65.573 E72.84189 ; brim
G1 X130.455 Y65.573 E73.75305 ; brim
G1 X133.927 Y69.045 E73.86241 ; brim
G1 X133.927 Y150.955 E75.68674 ; brim
G1 X130.455 Y154.427 E75.79610 ; brim
G1 X89.545 Y154.427 E76.70726 ; brim
G1 X86.073 Y150.955 E76.81662 ; brim
G1 X86.073 Y69.105 E78.63962 ; brim
G1 X86.430 Y69.193 F6000.000 ; move to first brim point
G1 F1800.000
G1 X89.693 Y65.930 E78.74238 ; brim
G1 X130.307 Y65.930 E79.64696 ; brim
G1 X133.570 Y69.193 E79.74972 ; brim
G1 X133.570 Y150.807 E81.56747 ; brim
G1 X130.307 Y154.070 E81.67023 ; brim
G1 X89.693 Y154.070 E82.57481 ; brim
G1 X86.430 Y150.807 E82.67757 ; brim
G1 X86.430 Y69.253 E84.49398 ; brim
G1 X86.787 Y69.341 F6000.000 ; move to first brim point
G1 F1800.000
G1 X89.841 Y66.287 E84.59016 ; brim
G1 X130.159 Y66.287 E85.48814 ; brim
G1 X133.213 Y69.341 E85.58432 ; brim
G1 X133.213 Y150.659 E87.39547 ; brim
G1 X130.159 Y153.713 E87.49165 ; brim
G1 X89.841 Y153.713 E88.38963 ; brim
G1 X86.787 Y150.659 E88.48581 ; brim
G1 X86.787 Y69.401 E90.29563 ; brim
G1 X87.145 Y69.489 F6000.000 ; move to first brim point
G1 F1800.000
G1 X89.989 Y66.645 E90.38521 ; brim
G1 X130.011 Y66.645 E91.27661 ; brim
G1 X132.855 Y69.489 E91.36619 ; brim
G1 X132.855 Y150.511 E93.17076 ; brim
G1 X130.011 Y153.355 E93.26035 ; brim
G1 X89.989 Y153.355 E94.15174 ; brim
G1 X87.145 Y150.511 E94.24133 ; brim
G1 X87.145 Y69.549 E96.04455 ; brim
G1 X87.502 Y69.637 F6000.000 ; move to first brim point
G1 F1800.000
G1 X90.137 Y67.002 E96.12755 ; brim
G1 X129.863 Y67.002 E97.01236 ; brim
G1 X132.498 Y69.637 E97.09535 ; brim
G1 X132.498 Y150.363 E98.89333 ; brim
G1 X129.863 Y152.998 E98.97633 ; brim
G1 X90.137 Y152.998 E99.86113 ; brim
G1 X87.502 Y150.363 E99.94413 ; brim
G1 X87.502 Y69.697 E101.74077 ; brim
G1 X87.859 Y69.785 F6000.000 ; move to first brim point
G1 F1800.000
G1 X90.285 Y67.359 E101.81717 ; brim
G1 X129.715 Y67.359 E102.69539 ; brim
G1 X132.141 Y69.785 E102.77180 ; brim
G1 X132.141 Y150.215 E104.56318 ; brim
G1 X129.715 Y152.641 E104.63959 ; brim
G1 X90.285 Y152.641 E105.51780 ; brim
G1 X87.859 Y150.215 E105.59421 ; brim
G1 X87.859 Y69.845 E107.38426 ; brim
G1 X88.216 Y69.933 F6000.000 ; move to first brim point
G1 F1800.000
G1 X90.433 Y67.716 E107.45408 ; brim
G1 X129.567 Y67.716 E108.32570 ; brim
G1 X131.784 Y69.933 E108.39552 ; brim
G1 X131.784 Y150.067 E110.18032 ; brim
G1 X129.567 Y152.284 E110.25014 ; brim
G1 X90.433 Y152.284 E111.12176 ; brim
G1 X88.216 Y150.067 E111.19158 ; brim
G1 X88.216 Y69.993 E112.97504 ; brim
G1 X88.573 Y70.081 F6000.000 ; move to first brim point
G1 F1800.000
G1 X90.581 Y68.073 E113.03827 ; brim
G1 X129.419 Y68.073 E113.90330 ; brim
G1 X131.427 Y70.081 E113.96653 ; brim
G1 X131.427 Y149.919 E115.74474 ; brim
G1 X129.419 Y151.927 E115.80797 ; brim
G1 X90.581 Y151.927 E116.67300 ; brim
G1 X88.573 Y149.919 E116.73623 ; brim
G1 X88.573 Y70.141 E118.51310 ; brim
G1 X88.930 Y70.228 F6000.000 ; move to first brim point
G1 F1800.000
G1 X90.728 Y68.430 E118.56974 ; brim
G1 X129.272 Y68.430 E119.42818 ; brim
G1 X131.070 Y70.228 E119.48482 ; brim
G1 X131.070 Y149.772 E121.25644 ; brim
G1 X129.272 Y151.570 E121.31308 ; brim
G1 X90.728 Y151.570 E122.17152 ; brim
G1 X88.930 Y149.772 E122.22816 ; brim
G1 X88.930 Y70.288 E123.99844 ; brim
G1 X89.287 Y70.376 F6000.000 ; move to first brim point
G1 F1800.000
G1 X90.876 Y68.787 E124.04849 ; brim
G1 X129.124 Y68.787 E124.90035 ; brim
G1 X130.713 Y70.376 E124.95040 ; brim
G1 X130.713 Y149.624 E126.71542 ; brim
G1 X129.124 Y151.213 E126.76547 ; brim
G1 X90.876 Y151.213 E127.61733 ; brim
G1 X89.287 Y149.624 E127.66738 ; brim
G1 X89.287 Y70.436 E129.43107 ; brim
G1 X89.645 Y70.524 F6000.000 ; move to first brim point
G1 F1800.000
G1 X91.024 Y69.145 E129.47453 ; brim
G1 X128.976 Y69.145 E130.31979 ; brim
G1 X130.355 Y70.524 E130.36325 ; brim
G1 X130.355 Y149.476 E132.12169 ; brim
G1 X128.976 Y150.855 E132.16515 ; brim
G1 X91.024 Y150.855 E133.01042 ; brim
G1 X89.645 Y149.476 E133.05388 ; brim
G1 X89.645 Y70.584 E134.81098 ; brim
G1 X90.002 Y70.672 F6000.000 ; move to first brim point
G1 F1800.000
G1 X91.172 Y69.502 E134.84785 ; brim
G1 X128.828 Y69.502 E135.68652 ; brim
G1 X129.998 Y70.672 E135.72339 ; brim
G1 X129.998 Y149.328 E137.47524 ; brim
G1 X128.828 Y150.498 E137.51211 ; brim
G1 X91.172 Y150.498 E138.35079 ; brim
G1 X90.002 Y149.328 E138.38766 ; brim
G1 X90.002 Y70.732 E140.13817 ; brim
G1 X90.359 Y70.820 F6000.000 ; move to first brim point
G1 F1800.000
G1 X91.320 Y69.859 E140.16845 ; brim
G1 X128.680 Y69.859 E141.00053 ; brim
G1 X129.641 Y70.820 E141.03082 ; brim
G1 X129.641 Y149.180 E142.77607 ; brim
G1 X128.680 Y150.141 E142.80635 ; brim
G1 X91.320 Y150.141 E143.63844 ; brim
G1 X90.359 Y149.180 E143.66872 ; brim
G1 X90.359 Y70.880 E145.41264 ; brim
G1 X90.716 Y70.968 F6000.000 ; move to first brim point
G1 F1800.000
G1 X91.468 Y70.216 E145.43633 ; brim
G1 X128.532 Y70.216 E146.26183 ; brim
G1 X129.284 Y70.968 E146.28552 ; brim
G1 X129.284 Y149.032 E148.02419 ; brim
G1 X128.532 Y149.784 E148.04788 ; brim
G1 X91.468 Y149.784 E148.87338 ; brim
G1 X90.716 Y149.032 E148.89707 ; brim
G1 X90.716 Y71.028 E150.63440 ; brim
G1 X91.073 Y71.116 F6000.000 ; move to first brim point
G1 F1800.000
G1 X91.616 Y70.573 E150.65150 ; brim
G1 X128.384 Y70.573 E151.47041 ; brim
G1 X128.927 Y71.116 E151.48751 ; brim
G1 X128.927 Y148.884 E153.21959 ; brim
G1 X128.384 Y149.427 E153.23669 ; brim
G1 X91.616 Y149.427 E154.05560 ; brim
G1 X91.073 Y148.884 E154.07270 ; brim
G1 X91.073 Y71.176 E155.80344 ; brim
G1 X91.430 Y71.264 F6000.000 ; move to first brim point
G1 F1800.000
G1 X91.764 Y70.930 E155.81395 ; brim
G1 X128.236 Y70.930 E156.62627 ; brim
G1 X128.570 Y71.264 E156.63678 ; brim
G1 X128.570 Y148.736 E158.36227 ; brim
G1 X128.236 Y149.070 E158.37278 ; brim
G1 X91.764 Y149.070 E159.18510 ; brim
G1 X91.430 Y148.736 E159.19561 ; brim
G1 X91.430 Y71.324 E160.91976 ; brim
G1 X91.787 Y71.412 F6000.000 ; move to first brim point
G1 F1800.000
G1 X91.912 Y71.287 E160.92368 ; brim
G1 X128.088 Y71.287 E161.72941 ; brim
G1 X128.213 Y71.412 E161.73333 ; brim
G1 X128.213 Y148.588 E163.45223 ; brim
G1 X128.088 Y148.713 E163.45615 ; brim
G1 X91.912 Y148.713 E164.26188 ; brim
G1 X91.787 Y148.588 E164.26580 ; brim
G1 X91.787 Y71.472 E165.98336 ; brim
; printing object female_espace_window.stl id:0 copy 0
G1 X92.200 Y71.700 F6000.000 ; move to first external perimeter point
G1 F1800.000
G1 X127.800 Y71.700 E166.77612 ; external perimeter
G1 X127.800 Y148.300 E168.48189 ; external perimeter
G1 X92.200 Y148.300 E169.27464 ; external perimeter
G1 X92.200 Y71.760 E170.97907 ; external perimeter
G1 X92.200 Y71.700 F6000.000 ; move inwards before travel
G1 X92.557 Y72.057 F6000.000 ; move to first perimeter point
G1 F1800.000
G1 X127.443 Y72.057 E171.75593 ; perimeter
G1 X127.443 Y147.943 E173.44579 ; perimeter
G1 X92.557 Y147.943 E174.22264 ; perimeter
G1 X92.557 Y72.117 E175.91117 ; perimeter
G1 E171.91117 F2100.00000 ; retract extruder 0
G92 E0 ; reset extrusion distance
G1 X127.086 Y126.917 F6000.000 ; move to first perimeter point
G1 E4.00000 F2100.00000 ; unretract extruder 0
G1 F1800.000
G1 X127.086 Y147.586 E4.46027 ; perimeter
G1 X92.914 Y147.586 E5.22122 ; perimeter
G1 X92.914 Y72.414 E6.89518 ; perimeter
G1 X127.086 Y72.414 E7.65613 ; perimeter
G1 X127.086 Y126.857 E8.86848 ; perimeter
G1 E4.86848 F2100.00000 ; retract extruder 0
G92 E0 ; reset extrusion distance
G1 X126.590 Y147.368 F6000.000 ; move to first infill point
G1 E4.00000 F2100.00000 ; unretract extruder 0
G1 F1800.000
G1 X126.868 Y147.090 E4.00878 ; infill
G1 X126.868 Y146.583 E4.02010 ; infill
G1 X126.083 Y147.368 E4.04489 ; infill
G1 X125.576 Y147.368 E4.05621 ; infill
G1 X126.868 Y146.076 E4.09700 ; infill
G1 X126.868 Y145.570 E4.10832 ; infill
G1 X125.070 Y147.368 E4.16512 ; infill
G1 X124.563 Y147.368 E4.17644 ; infill
G1 X126.868 Y145.063 E4.24925 ; infill
G1 X126.868 Y144.557 E4.26057 ; infill
G1 X124.057 Y147.368 E4.34939 ; infill
G1 X123.550 Y147.368 E4.36071 ; infill
G1 X126.868 Y144.050 E4.46553 ; infill
G1 X126.868 Y143.543 E4.47685 ; infill
G1 X123.043 Y147.368 E4.59769 ; infill
G1 X122.537 Y147.368 E4.60901 ; infill
G1 X126.868 Y143.037 E4.74585 ; infill
G1 X126.868 Y142.530 E4.75717 ; infill
G1 X122.030 Y147.368 E4.91001 ; infill
G1 X121.523 Y147.368 E4.92133 ; infill
G1 X126.868 Y142.023 E5.09019 ; infill
G1 X126.868 Y141.517 E5.10151 ; infill
G1 X121.017 Y147.368 E5.28637 ; infill
G1 X120.510 Y147.368 E5.29769 ; infill
