; generated by Slic3r 1.3.1-dev on 2018-09-07 at 14:19:23

; external perimeters extrusion width = 0.44mm (1.59mm^3/s)
; perimeters extrusion width = 0.56mm (4.14mm^3/s)
; infill extrusion width = 0.50mm (5.48mm^3/s)
; solid infill extrusion width = 0.56mm (2.07mm^3/s)
; top infill extrusion width = 0.56mm (1.55mm^3/s)

M190 S90 ; set bed temperature and wait for it to be reached
M104 S235 ; set temperature
G28 ; home all axes
G29 ; ABL
G1 Z5 F5000 ; lift nozzle

; Filament gcode

M109 S235 ; set temperature and wait for it to be reached
G21 ; set units to millimeters
G90 ; use absolute coordinates
M82 ; use absolute distances for extrusion
G92 E0 ; reset extrusion distance
G92 E0 ; reset extrusion distance
G1 Z0.300 F9000.000 ; move to next layer (0)
G1 E-1.00000 F1800.00000 ; retract extruder 0
G92 E0 ; reset extrusion distance
G1 X96.206 Y95.918 F9000.000 ; move to first skirt point
G1 E1.00000 F1800.00000 ; unretract extruder 0
G1 F1500
G1 X98.472 Y94.760 E1.16998 ; skirt
G1 X101.000 Y94.358 E1.34100 ; skirt
G1 X119.000 Y94.358 E2.54350 ; skirt
G1 X121.513 Y94.755 E2.71348 ; skirt
G1 X123.781 Y95.909 E2.88346 ; skirt
G1 X125.582 Y97.706 E3.05344 ; skirt
G1 X126.740 Y99.972 E3.22342 ; skirt
G1 X127.142 Y102.500 E3.39444 ; skirt
G1 X127.142 Y117.500 E4.39653 ; skirt
G1 X126.745 Y120.013 E4.56651 ; skirt
G1 X125.591 Y122.281 E4.73649 ; skirt
G1 X123.794 Y124.082 E4.90647 ; skirt
G1 X121.528 Y125.240 E5.07644 ; skirt
G1 X119.000 Y125.642 E5.24747 ; skirt
G1 X101.000 Y125.642 E6.44997 ; skirt
G1 X98.487 Y125.245 E6.61995 ; skirt
G1 X96.219 Y124.091 E6.78993 ; skirt
G1 X94.418 Y122.294 E6.95991 ; skirt
G1 X93.260 Y120.028 E7.12989 ; skirt
G1 X92.858 Y117.500 E7.30091 ; skirt
G1 X92.858 Y102.500 E8.30299 ; skirt
G1 X93.255 Y99.987 E8.47297 ; skirt
G1 X94.409 Y97.719 E8.64295 ; skirt
G1 X96.164 Y95.961 E8.80892 ; skirt
G1 X96.725 Y96.208 F9000.000 ; move to first skirt point
G1 F1500
G1 X98.955 Y95.173 E8.97318 ; skirt
G1 X101.000 Y94.893 E9.11107 ; skirt
G1 X119.000 Y94.893 E10.31357 ; skirt
G1 X121.426 Y95.291 E10.47783 ; skirt
G1 X123.599 Y96.441 E10.64209 ; skirt
G1 X125.292 Y98.225 E10.80634 ; skirt
G1 X126.327 Y100.455 E10.97060 ; skirt
G1 X126.607 Y102.500 E11.10849 ; skirt
G1 X126.607 Y117.500 E12.11058 ; skirt
G1 X126.209 Y119.926 E12.27483 ; skirt
G1 X125.059 Y122.099 E12.43909 ; skirt
G1 X123.275 Y123.792 E12.60335 ; skirt
G1 X121.045 Y124.827 E12.76761 ; skirt
G1 X119.000 Y125.107 E12.90550 ; skirt
G1 X101.000 Y125.107 E14.10800 ; skirt
G1 X98.574 Y124.709 E14.27226 ; skirt
G1 X96.401 Y123.559 E14.43652 ; skirt
G1 X94.708 Y121.775 E14.60077 ; skirt
G1 X93.673 Y119.545 E14.76503 ; skirt
G1 X93.393 Y117.500 E14.90292 ; skirt
G1 X93.393 Y102.500 E15.90501 ; skirt
G1 X93.791 Y100.074 E16.06926 ; skirt
G1 X94.941 Y97.901 E16.23352 ; skirt
G1 X96.681 Y96.250 E16.39377 ; skirt
G1 X97.241 Y96.511 F9000.000 ; move to first skirt point
G1 F1500
G1 X99.431 Y95.605 E16.55210 ; skirt
G1 X101.000 Y95.429 E16.65760 ; skirt
G1 X119.000 Y95.429 E17.86010 ; skirt
G1 X121.337 Y95.826 E18.01843 ; skirt
G1 X123.411 Y96.973 E18.17676 ; skirt
G1 X124.989 Y98.741 E18.33509 ; skirt
G1 X125.895 Y100.931 E18.49342 ; skirt
G1 X126.071 Y102.500 E18.59891 ; skirt
G1 X126.071 Y117.500 E19.60099 ; skirt
G1 X125.674 Y119.837 E19.75932 ; skirt
G1 X124.527 Y121.911 E19.91765 ; skirt
G1 X122.759 Y123.489 E20.07598 ; skirt
G1 X120.569 Y124.395 E20.23431 ; skirt
G1 X119.000 Y124.571 E20.33981 ; skirt
G1 X101.000 Y124.571 E21.54231 ; skirt
G1 X98.663 Y124.174 E21.70064 ; skirt
G1 X96.589 Y123.027 E21.85897 ; skirt
G1 X95.011 Y121.259 E22.01730 ; skirt
G1 X94.105 Y119.069 E22.17563 ; skirt
G1 X93.929 Y117.500 E22.28112 ; skirt
G1 X93.929 Y102.500 E23.28320 ; skirt
G1 X94.326 Y100.163 E23.44153 ; skirt
G1 X95.473 Y98.089 E23.59987 ; skirt
G1 X97.196 Y96.551 E23.75419 ; skirt
G1 X97.753 Y96.828 F9000.000 ; move to first skirt point
G1 F1500
G1 X101.000 Y95.964 E23.97862 ; skirt
G1 X119.000 Y95.964 E25.18111 ; skirt
G1 X121.243 Y96.361 E25.33328 ; skirt
G1 X123.213 Y97.504 E25.48546 ; skirt
G1 X124.672 Y99.253 E25.63763 ; skirt
G1 X125.536 Y102.500 E25.86206 ; skirt
G1 X125.536 Y117.500 E26.86414 ; skirt
G1 X125.139 Y119.743 E27.01631 ; skirt
G1 X123.996 Y121.713 E27.16848 ; skirt
G1 X122.247 Y123.172 E27.32065 ; skirt
G1 X119.000 Y124.036 E27.54508 ; skirt
G1 X101.000 Y124.036 E28.74758 ; skirt
G1 X98.757 Y123.639 E28.89975 ; skirt
G1 X96.787 Y122.496 E29.05192 ; skirt
G1 X95.328 Y120.747 E29.20409 ; skirt
G1 X94.464 Y117.500 E29.42852 ; skirt
G1 X94.464 Y102.500 E30.43060 ; skirt
G1 X94.861 Y100.257 E30.58277 ; skirt
G1 X96.004 Y98.287 E30.73494 ; skirt
G1 X97.707 Y96.866 E30.88311 ; skirt
G1 E29.88311 F1800.00000 ; retract extruder 0
G92 E0 ; reset extrusion distance
G1 X117.586 Y113.102 F9000.000 ; move to first perimeter point
G1 E1.00000 F1800.00000 ; unretract extruder 0
G1 F1500
G1 X110.000 Y115.631 E1.53417 ; perimeter
G1 X102.414 Y113.102 E2.06834 ; perimeter
G1 X102.414 Y106.898 E2.48284 ; perimeter
G1 X110.000 Y104.369 E3.01702 ; perimeter
G1 X117.586 Y106.898 E3.55119 ; perimeter
G1 X117.586 Y113.042 E3.96168 ; perimeter
G1 X117.050 Y112.716 F9000.000 ; move to first external small perimeter point
G1 F1500
G1 X110.000 Y115.066 E4.45813 ; external small perimeter
G1 X102.950 Y112.716 E4.95459 ; external small perimeter
G1 X102.950 Y107.284 E5.31750 ; external small perimeter
G1 X110.000 Y104.934 E5.81396 ; external small perimeter
G1 X117.050 Y107.284 E6.31041 ; external small perimeter
G1 X117.050 Y112.656 E6.66932 ; external small perimeter
G1 X117.228 Y113.075 F9000.000 ; move inwards before travel
G1 E5.66932 F1800.00000 ; retract extruder 0
G92 E0 ; reset extrusion distance
G1 X108.990 Y104.141 F9000.000 ; move to first small perimeter point
G1 E1.00000 F1800.00000 ; unretract extruder 0
G1 F1500
G1 X102.371 Y106.348 E1.46611 ; small perimeter
G1 X102.371 Y103.871 E1.63154 ; small perimeter
G1 X108.947 Y103.871 E2.07081 ; small perimeter
G1 X108.981 Y104.082 E2.08507 ; small perimeter
G1 E1.08507 F1800.00000 ; retract extruder 0
G92 E0 ; reset extrusion distance
G1 X111.010 Y104.141 F9000.000 ; move to first small perimeter point
G1 E1.00000 F1800.00000 ; unretract extruder 0
G1 F1500
G1 X111.053 Y103.871 E1.01827 ; small perimeter
G1 X117.629 Y103.871 E1.45753 ; small perimeter
G1 X117.629 Y106.348 E1.62296 ; small perimeter
G1 X111.067 Y104.160 E2.08507 ; small perimeter
G1 E1.08507 F1800.00000 ; retract extruder 0
G92 E0 ; reset extrusion distance
G1 X117.629 Y113.652 F9000.000 ; move to first small perimeter point
G1 E1.00000 F1800.00000 ; unretract extruder 0
G1 F1500
G1 X117.629 Y116.129 E1.16543 ; small perimeter
G1 X111.053 Y116.129 E1.60470 ; small perimeter
G1 X111.010 Y115.859 E1.62296 ; small perimeter
G1 X117.572 Y113.671 E2.08507 ; small perimeter
G1 E1.08507 F1800.00000 ; retract extruder 0
G92 E0 ; reset extrusion distance
G1 X108.990 Y115.859 F9000.000 ; move to first small perimeter point
G1 E1.00000 F1800.00000 ; unretract extruder 0
G1 F1500
G1 X108.947 Y116.129 E1.01827 ; small perimeter
G1 X102.371 Y116.129 E1.45753 ; small perimeter
G1 X102.371 Y113.652 E1.62296 ; small perimeter
G1 X108.933 Y115.840 E2.08507 ; small perimeter
G1 E1.08507 F1800.00000 ; retract extruder 0
G92 E0 ; reset extrusion distance
G1 X101.836 Y116.664 F9000.000 ; move to first perimeter point
G1 E1.00000 F1800.00000 ; unretract extruder 0
G1 F1500
G1 X101.836 Y103.336 E1.89043 ; perimeter
G1 X118.164 Y103.336 E2.98128 ; perimeter
G1 X118.164 Y116.664 E3.87172 ; perimeter
G1 X101.896 Y116.664 E4.95856 ; perimeter
G1 X101.300 Y117.200 F9000.000 ; move to first external perimeter point
G1 F1500
G1 X101.300 Y102.800 E5.92056 ; external perimeter
G1 X118.700 Y102.800 E7.08297 ; external perimeter
G1 X118.700 Y117.200 E8.04497 ; external perimeter
G1 X101.360 Y117.200 E9.20337 ; external perimeter
G1 X101.416 Y116.817 F9000.000 ; move inwards before travel
G1 E8.20337 F1800.00000 ; retract extruder 0
G92 E0 ; reset extrusion distance
G1 X102.777 Y114.554 F9000.000 ; move to first infill point
G1 E1.00000 F1800.00000 ; unretract extruder 0
G1 F1500
G1 X102.755 Y114.547 E1.00186 ; infill
G1 X102.755 Y114.576 E1.00421 ; infill
G1 X103.080 Y114.251 E1.04106 ; infill
G1 X103.762 Y114.479 E1.09867 ; infill
G1 X102.755 Y115.485 E1.21281 ; infill
G1 X102.755 Y115.745 E1.23359 ; infill
G1 X103.405 Y115.745 E1.28568 ; infill
G1 X104.444 Y114.706 E1.40344 ; infill
G1 X105.126 Y114.933 E1.46105 ; infill
G1 X104.314 Y115.745 E1.55305 ; infill
G1 X105.223 Y115.745 F9000.000 ; move to first infill point
G1 F1500
G1 X105.526 Y115.442 E1.58740 ; infill
G1 X105.932 Y115.501 F9000.000 ; move to first infill point
G1 F1500
G1 X106.117 Y115.531 E1.60037 ; infill
G1 F1500
G1 X106.486 Y115.591 E1.62166 ; infill
G1 F1500
G1 X106.855 Y115.651 E1.63830 ; infill
G1 F1500
G1 X107.225 Y115.711 E1.65029 ; infill
G1 F1500
G1 X107.594 Y115.771 E1.65762 ; infill
G1 F1500
G1 X107.963 Y115.831 E1.66031 ; infill
G1 X109.233 Y116.037 F9000.000 ; move to first infill point
G1 F1500
G1 X109.462 Y116.074 E1.67643 ; infill
G1 F1500
G1 X109.922 Y116.148 E1.70389 ; infill
G1 X110.078 Y116.148 E1.71315 ; infill
G1 X110.308 Y116.111 E1.72687 ; infill
G1 F1500
G1 X110.767 Y116.037 E1.75913 ; infill
G1 X112.037 Y115.831 F9000.000 ; move to first infill point
G1 F1500
G1 X112.221 Y115.801 E1.76047 ; infill
G1 F1500
G1 X112.591 Y115.741 E1.76780 ; infill
G1 F1500
G1 X112.960 Y115.681 E1.77979 ; infill
G1 F1500
G1 X113.329 Y115.621 E1.79643 ; infill
G1 F1500
G1 X113.698 Y115.561 E1.81772 ; infill
G1 F1500
G1 X114.068 Y115.501 E1.84366 ; infill
G1 X114.647 Y115.312 F9000.000 ; move to first infill point
G1 F1500
G1 X114.416 Y115.389 E1.86321 ; infill
G1 X114.438 Y115.522 E1.87399 ; infill
G1 X114.950 Y115.009 E1.93212 ; infill
G1 X116.314 Y114.554 E2.04734 ; infill
G1 X115.124 Y115.745 E2.18229 ; infill
G1 X116.033 Y115.745 E2.25516 ; infill
G1 X117.245 Y114.533 E2.39258 ; infill
G1 X117.245 Y115.442 E2.46544 ; infill
G1 X116.942 Y115.745 E2.49981 ; infill
G1 E1.49981 F1800.00000 ; retract extruder 0
G92 E0 ; reset extrusion distance
G1 X116.942 Y105.756 F9000.000 ; move to first infill point
G1 E1.00000 F1800.00000 ; unretract extruder 0
G1 F1500
G1 X117.245 Y105.453 E1.03436 ; infill
G1 X117.245 Y104.544 E1.10723 ; infill
G1 X116.260 Y105.529 E1.21889 ; infill
G1 X115.578 Y105.301 E1.27649 ; infill
G1 X116.624 Y104.255 E1.39509 ; infill
G1 X115.715 Y104.255 E1.46795 ; infill
G1 X114.896 Y105.074 E1.56078 ; infill
G1 X114.416 Y104.914 E1.60137 ; infill
G1 X114.468 Y104.593 E1.62741 ; infill
G1 X114.806 Y104.255 E1.66573 ; infill
G1 X114.068 Y104.499 F9000.000 ; move to first infill point
G1 F1500
G1 X113.698 Y104.439 E1.69168 ; infill
G1 F1500
G1 X113.329 Y104.379 E1.71297 ; infill
G1 F1500
G1 X112.960 Y104.319 E1.72961 ; infill
G1 F1500
G1 X112.591 Y104.259 E1.74159 ; infill
G1 F1500
G1 X112.221 Y104.199 E1.74893 ; infill
G1 F1500
G1 X112.037 Y104.169 E1.75027 ; infill
G1 X110.767 Y103.963 F9000.000 ; move to first infill point
G1 F1500
G1 X110.308 Y103.889 E1.78252 ; infill
G1 F1500
G1 X110.078 Y103.852 E1.79625 ; infill
G1 X109.922 Y103.852 E1.80551 ; infill
G1 X109.462 Y103.926 E1.83296 ; infill
G1 F1500
G1 X109.233 Y103.963 E1.84909 ; infill
G1 X107.963 Y104.169 F9000.000 ; move to first infill point
G1 F1500
G1 X107.594 Y104.229 E1.85177 ; infill
G1 F1500
G1 X107.225 Y104.289 E1.85911 ; infill
G1 F1500
G1 X106.855 Y104.349 E1.87109 ; infill
G1 F1500
G1 X106.486 Y104.409 E1.88773 ; infill
G1 F1500
G1 X106.117 Y104.469 E1.90902 ; infill
G1 F1500
G1 X105.932 Y104.499 E1.92200 ; infill
G1 X105.281 Y104.914 F9000.000 ; move to first infill point
G1 F1500
G1 X105.584 Y104.611 E1.95637 ; infill
G1 X105.526 Y104.255 E1.98525 ; infill
G1 X105.030 Y104.255 E2.02498 ; infill
G1 X103.917 Y105.369 E2.15120 ; infill
G1 X102.755 Y105.756 E2.24938 ; infill
G1 X102.755 Y105.622 E2.26015 ; infill
G1 X104.122 Y104.255 E2.41504 ; infill
G1 X103.213 Y104.255 E2.48791 ; infill
G1 X102.755 Y104.713 E2.53974 ; infill
G1 X102.755 Y104.558 E2.55210 ; infill
G1 X102.910 Y104.558 E2.56446 ; infill
M104 S232 ; set temperature
M140 S80 ; set bed temperature
G1 Z0.500 F9000.000 ; move to next layer (1)
G1 X102.573 Y112.988 F9000.000 ; move to first perimeter point
G1 F2400
G1 X102.573 Y107.012 E2.82140 ; perimeter
G1 X110.000 Y104.536 E3.15801 ; perimeter
G1 X117.427 Y107.012 E3.49461 ; perimeter
G1 X117.427 Y112.988 E3.75155 ; perimeter
G1 X110.000 Y115.464 E4.08815 ; perimeter
G1 X102.630 Y113.007 E4.42218 ; perimeter
G1 X103.030 Y112.659 F9000.000 ; move to first external small perimeter point
G1 F900
G1 X103.030 Y107.341 E4.59773 ; external small perimeter
G1 X110.000 Y105.018 E4.84031 ; external small perimeter
G1 X116.970 Y107.341 E5.08289 ; external small perimeter
G1 X116.970 Y112.659 E5.25845 ; external small perimeter
G1 X110.000 Y114.982 E5.50103 ; external small perimeter
G1 X103.087 Y112.678 E5.74163 ; external small perimeter
G1 X102.630 Y112.659 F9000.000 ; move inwards before travel
G1 X102.194 Y113.407 F9000.000 ; move to first small perimeter point
G1 F900
G1 X110.000 Y116.009 E6.09540 ; small perimeter
G1 X117.806 Y113.407 E6.44917 ; small perimeter
G1 X117.806 Y116.306 E6.57381 ; small perimeter
G1 X102.194 Y116.306 E7.24504 ; small perimeter
G1 X102.194 Y113.467 E7.36711 ; small perimeter
G1 X102.194 Y106.593 F9000.000 ; move to first small perimeter point
G1 F900
G1 X102.194 Y103.694 E7.49175 ; small perimeter
G1 X117.806 Y103.694 E8.16298 ; small perimeter
G1 X117.806 Y106.593 E8.28763 ; small perimeter
G1 X110.000 Y103.991 E8.64140 ; small perimeter
G1 X102.251 Y106.574 E8.99258 ; small perimeter
G1 X101.677 Y103.177 F9000.000 ; move to first perimeter point
G1 F2400
G1 X118.323 Y103.177 E9.70828 ; perimeter
G1 X118.323 Y116.823 E10.29499 ; perimeter
G1 X101.677 Y116.823 E11.01068 ; perimeter
G1 X101.677 Y103.237 E11.59481 ; perimeter
G1 X101.220 Y102.720 F9000.000 ; move to first external perimeter point
G1 F1200
G1 X118.780 Y102.720 E12.17459 ; external perimeter
G1 X118.780 Y117.280 E12.65532 ; external perimeter
G1 X101.220 Y117.280 E13.23511 ; external perimeter
G1 X101.220 Y102.780 E13.71386 ; external perimeter
G1 X101.609 Y102.811 F9000.000 ; move inwards before travel
G1 X102.857 Y106.022 F9000.000 ; move to first infill point
G1 F1200
G1 X102.565 Y105.729 E13.73322 ; infill
G1 X102.565 Y104.933 E13.77048 ; infill
G1 X103.455 Y105.823 E13.82936 ; infill
G1 X104.052 Y105.624 E13.85881 ; infill
G1 X102.565 Y104.137 E13.95721 ; infill
G1 X102.565 Y104.065 E13.96060 ; infill
G1 X103.289 Y104.065 E13.99447 ; infill
G1 X104.649 Y105.425 E14.08449 ; infill
G1 X105.246 Y105.226 E14.11395 ; infill
G1 X104.085 Y104.065 E14.19079 ; infill
G1 X104.881 Y104.065 E14.22805 ; infill
G1 X105.843 Y105.027 E14.29173 ; infill
G1 X106.440 Y104.828 E14.32118 ; infill
G1 X105.677 Y104.065 E14.37168 ; infill
G1 X106.473 Y104.065 E14.40894 ; infill
G1 X106.765 Y104.358 E14.42831 ; infill
G1 X107.157 Y104.300 F9000.000 ; move to first infill point
G1 F1200
G1 X107.336 Y104.271 E14.43669 ; infill
G1 F1200
G1 X107.694 Y104.213 E14.45052 ; infill
G1 F1200
G1 X108.051 Y104.155 E14.46145 ; infill
G1 F1200
G1 X108.409 Y104.097 E14.46946 ; infill
G1 F1200
G1 X108.767 Y104.039 E14.47456 ; infill
G1 F1200
G1 X109.124 Y103.981 E14.47674 ; infill
G1 X110.876 Y103.981 F9000.000 ; move to first infill point
G1 F1200
G1 X111.055 Y104.010 E14.47784 ; infill
G1 F1200
G1 X111.412 Y104.068 E14.48294 ; infill
G1 F1200
G1 X111.770 Y104.126 E14.49095 ; infill
G1 F1200
G1 X112.127 Y104.184 E14.50187 ; infill
G1 F1200
G1 X112.485 Y104.242 E14.51571 ; infill
G1 F1200
G1 X112.843 Y104.300 E14.53246 ; infill
G1 X113.471 Y104.701 F9000.000 ; move to first infill point
G1 F1200
G1 X113.179 Y104.408 E14.55341 ; infill
G1 X113.235 Y104.065 E14.57102 ; infill
G1 X113.697 Y104.065 E14.59443 ; infill
G1 X114.764 Y105.132 E14.67083 ; infill
G1 X116.056 Y105.562 E14.73980 ; infill
G1 X114.558 Y104.065 E14.84704 ; infill
G1 X115.420 Y104.065 E14.89066 ; infill
G1 X117.348 Y105.993 E15.02874 ; infill
