; generated by Slic3r Prusa Edition 1.41.0 on 2018-11-22 at 23:06:56

; 

; external perimeters extrusion width = 0.45mm
; perimeters extrusion width = 0.45mm
; infill extrusion width = 0.45mm
; solid infill extrusion width = 0.45mm
; top infill extrusion width = 0.40mm
; support material extrusion width = 0.40mm
; first layer extrusion width = 0.60mm

M201 X9000 Y9000 Z500 E10000 ; sets maximum accelerations, mm/sec^2
M203 X500 Y500 Z12 E120 ; sets maximum feedrates, mm/sec
M204 P1500 R1500 T1500 ; sets acceleration (P, T) and retract acceleration (R), mm/sec^2
M205 X10.00 Y10.00 Z0.20 E2.50 ; sets the jerk limits, mm/sec
M205 S0 T0 ; sets the minimum extruding and travel feed rate, mm/sec
M107 ; disable fan
M190 S60 ; set bed temperature and wait for it to be reached
M104 S215 ; set temperature
G28 ; home all axes
G29 ; ABL
G1 Z5 F5000 ; lift nozzle
M900 K200
M109 S215 ; set temperature and wait for it to be reached
G21 ; set units to millimeters
G90 ; use absolute coordinates
M82 ; use absolute distances for extrusion
G92 E0 ; reset extrusion distance
G1 Z0.300 F9000.000 ; move to next layer (0)
G1 E-0.50000 F1800.00000 ; retract
G92 E0 ; reset extrusion distance
G1 X101.360 Y101.161 F9000.000 ; move to first skirt point
G1 E0.50000 F1800.00000 ; unretract
G1 F1500
G1 X102.219 Y100.395 E0.57688 ; skirt
G1 X103.285 Y99.622 E0.66485 ; skirt
G1 X104.206 Y99.082 E0.73617 ; skirt
G1 X105.374 Y98.537 E0.82230 ; skirt
G1 X106.381 Y98.181 E0.89362 ; skirt
G1 X107.659 Y97.862 E0.98158 ; skirt
G1 X108.687 Y97.710 E1.05106 ; skirt
G1 X110.009 Y97.639 E1.13950 ; skirt
G1 X111.324 Y97.711 E1.22747 ; skirt
G1 X112.373 Y97.869 E1.29833 ; skirt
G1 X113.657 Y98.193 E1.38677 ; skirt
G1 X114.707 Y98.570 E1.46133 ; skirt
G1 X115.847 Y99.109 E1.54561 ; skirt
G1 X116.811 Y99.686 E1.62062 ; skirt
G1 X117.876 Y100.472 E1.70907 ; skirt
G1 X118.839 Y101.360 E1.79658 ; skirt
G1 X119.605 Y102.219 E1.87346 ; skirt
G1 X120.378 Y103.285 E1.96143 ; skirt
G1 X120.918 Y104.206 E2.03275 ; skirt
G1 X121.463 Y105.374 E2.11888 ; skirt
G1 X121.819 Y106.381 E2.19021 ; skirt
G1 X122.138 Y107.659 E2.27816 ; skirt
G1 X122.290 Y108.687 E2.34764 ; skirt
G1 X122.361 Y110.002 E2.43561 ; skirt
G1 X122.289 Y111.324 E2.52405 ; skirt
G1 X122.131 Y112.373 E2.59491 ; skirt
G1 X121.807 Y113.657 E2.68335 ; skirt
G1 X121.430 Y114.707 E2.75791 ; skirt
G1 X120.891 Y115.847 E2.84218 ; skirt
G1 X120.314 Y116.811 E2.91720 ; skirt
G1 X119.528 Y117.876 E3.00565 ; skirt
G1 X118.640 Y118.839 E3.09316 ; skirt
G1 X117.781 Y119.605 E3.17004 ; skirt
G1 X116.715 Y120.378 E3.25801 ; skirt
G1 X115.794 Y120.918 E3.32933 ; skirt
G1 X114.626 Y121.463 E3.41546 ; skirt
G1 X113.619 Y121.819 E3.48679 ; skirt
G1 X112.341 Y122.138 E3.57474 ; skirt
G1 X111.313 Y122.290 E3.64422 ; skirt
G1 X109.998 Y122.361 E3.73219 ; skirt
G1 X108.676 Y122.289 E3.82063 ; skirt
G1 X107.627 Y122.131 E3.89149 ; skirt
G1 X106.343 Y121.807 E3.97993 ; skirt
G1 X105.293 Y121.430 E4.05449 ; skirt
G1 X104.153 Y120.891 E4.13876 ; skirt
G1 X103.189 Y120.314 E4.21378 ; skirt
G1 X102.129 Y119.532 E4.30176 ; skirt
G1 X101.161 Y118.640 E4.38974 ; skirt
G1 X100.395 Y117.781 E4.46661 ; skirt
G1 X99.622 Y116.715 E4.55459 ; skirt
G1 X99.082 Y115.794 E4.62591 ; skirt
G1 X98.537 Y114.626 E4.71204 ; skirt
G1 X98.181 Y113.619 E4.78335 ; skirt
G1 X97.862 Y112.341 E4.87132 ; skirt
G1 X97.710 Y111.313 E4.94079 ; skirt
G1 X97.639 Y109.998 E5.02877 ; skirt
G1 X97.711 Y108.676 E5.11721 ; skirt
G1 X97.869 Y107.627 E5.18807 ; skirt
G1 X98.193 Y106.343 E5.27651 ; skirt
G1 X98.570 Y105.293 E5.35107 ; skirt
G1 X99.109 Y104.153 E5.43535 ; skirt
G1 X99.686 Y103.189 E5.51036 ; skirt
G1 X100.468 Y102.129 E5.59834 ; skirt
G1 X101.320 Y101.205 E5.68231 ; skirt
G1 X101.713 Y101.568 F9000.000 ; move to first skirt point
G1 F1500
G1 X102.558 Y100.810 E5.75819 ; skirt
G1 X103.582 Y100.068 E5.84265 ; skirt
G1 X104.460 Y99.553 E5.91061 ; skirt
G1 X105.582 Y99.031 E5.99330 ; skirt
G1 X106.535 Y98.694 E6.06080 ; skirt
G1 X107.761 Y98.388 E6.14527 ; skirt
G1 X108.741 Y98.243 E6.21143 ; skirt
G1 X110.004 Y98.174 E6.29591 ; skirt
G1 X111.273 Y98.244 E6.38083 ; skirt
G1 X112.266 Y98.393 E6.44789 ; skirt
G1 X113.498 Y98.704 E6.53281 ; skirt
G1 X114.499 Y99.064 E6.60389 ; skirt
G1 X115.594 Y99.582 E6.68479 ; skirt
G1 X116.513 Y100.131 E6.75631 ; skirt
G1 X117.536 Y100.886 E6.84124 ; skirt
G1 X118.460 Y101.739 E6.92526 ; skirt
G1 X119.190 Y102.558 E6.99858 ; skirt
G1 X119.932 Y103.582 E7.08305 ; skirt
G1 X120.447 Y104.460 E7.15100 ; skirt
G1 X120.969 Y105.582 E7.23370 ; skirt
G1 X121.306 Y106.535 E7.30121 ; skirt
G1 X121.612 Y107.761 E7.38566 ; skirt
G1 X121.757 Y108.741 E7.45183 ; skirt
G1 X121.826 Y110.004 E7.53630 ; skirt
G1 X121.756 Y111.273 E7.62122 ; skirt
G1 X121.607 Y112.266 E7.68828 ; skirt
G1 X121.296 Y113.498 E7.77321 ; skirt
G1 X120.936 Y114.499 E7.84428 ; skirt
G1 X120.418 Y115.594 E7.92518 ; skirt
G1 X119.873 Y116.508 E7.99626 ; skirt
G1 X119.118 Y117.531 E8.08119 ; skirt
G1 X118.261 Y118.460 E8.16566 ; skirt
G1 X117.442 Y119.190 E8.23897 ; skirt
G1 X116.418 Y119.932 E8.32344 ; skirt
G1 X115.540 Y120.447 E8.39140 ; skirt
G1 X114.418 Y120.969 E8.47409 ; skirt
G1 X113.465 Y121.306 E8.54160 ; skirt
G1 X112.239 Y121.612 E8.62605 ; skirt
G1 X111.259 Y121.757 E8.69222 ; skirt
G1 X109.996 Y121.826 E8.77670 ; skirt
G1 X108.734 Y121.757 E8.86117 ; skirt
G1 X107.734 Y121.607 E8.92868 ; skirt
G1 X106.502 Y121.296 E9.01360 ; skirt
G1 X105.501 Y120.936 E9.08468 ; skirt
G1 X104.406 Y120.418 E9.16558 ; skirt
G1 X103.492 Y119.873 E9.23665 ; skirt
G1 X102.469 Y119.118 E9.32158 ; skirt
G1 X101.540 Y118.261 E9.40605 ; skirt
G1 X100.810 Y117.442 E9.47937 ; skirt
G1 X100.068 Y116.418 E9.56384 ; skirt
G1 X99.553 Y115.540 E9.63179 ; skirt
G1 X99.031 Y114.418 E9.71449 ; skirt
G1 X98.693 Y113.459 E9.78243 ; skirt
G1 X98.388 Y112.239 E9.86645 ; skirt
G1 X98.243 Y111.259 E9.93262 ; skirt
G1 X98.174 Y109.996 E10.01709 ; skirt
G1 X98.243 Y108.734 E10.10157 ; skirt
G1 X98.393 Y107.734 E10.16907 ; skirt
G1 X98.704 Y106.502 E10.25400 ; skirt
G1 X99.064 Y105.501 E10.32508 ; skirt
G1 X99.582 Y104.406 E10.40598 ; skirt
G1 X100.131 Y103.487 E10.47749 ; skirt
G1 X100.886 Y102.464 E10.56242 ; skirt
G1 X101.672 Y101.612 E10.63987 ; skirt
G1 X102.066 Y101.975 F9000.000 ; move to first skirt point
G1 F1500
G1 X102.898 Y101.224 E10.71476 ; skirt
G1 X103.879 Y100.513 E10.79571 ; skirt
G1 X105.783 Y99.527 E10.93896 ; skirt
G1 X106.689 Y99.207 E11.00312 ; skirt
G1 X107.864 Y98.914 E11.08407 ; skirt
G1 X110.005 Y98.710 E11.22775 ; skirt
G1 X111.222 Y98.777 E11.30914 ; skirt
G1 X112.165 Y98.919 E11.37287 ; skirt
G1 X113.346 Y99.218 E11.45426 ; skirt
G1 X114.298 Y99.561 E11.52187 ; skirt
G1 X115.347 Y100.057 E11.59939 ; skirt
G1 X116.216 Y100.576 E11.66698 ; skirt
G1 X117.191 Y101.296 E11.74794 ; skirt
G1 X118.081 Y102.118 E11.82890 ; skirt
G1 X118.776 Y102.898 E11.89866 ; skirt
G1 X119.487 Y103.879 E11.97961 ; skirt
G1 X120.473 Y105.783 E12.12286 ; skirt
G1 X120.793 Y106.689 E12.18703 ; skirt
G1 X121.086 Y107.864 E12.26797 ; skirt
G1 X121.290 Y110.005 E12.41165 ; skirt
G1 X121.223 Y111.222 E12.49304 ; skirt
G1 X121.081 Y112.165 E12.55677 ; skirt
G1 X120.782 Y113.346 E12.63817 ; skirt
G1 X120.439 Y114.298 E12.70577 ; skirt
G1 X119.943 Y115.347 E12.78328 ; skirt
G1 X119.424 Y116.216 E12.85088 ; skirt
G1 X118.704 Y117.191 E12.93185 ; skirt
G1 X117.882 Y118.081 E13.01280 ; skirt
G1 X117.102 Y118.776 E13.08256 ; skirt
G1 X116.121 Y119.487 E13.16352 ; skirt
G1 X114.217 Y120.473 E13.30677 ; skirt
G1 X113.311 Y120.793 E13.37093 ; skirt
G1 X112.136 Y121.086 E13.45187 ; skirt
G1 X109.995 Y121.290 E13.59555 ; skirt
G1 X108.778 Y121.223 E13.67694 ; skirt
G1 X107.835 Y121.081 E13.74068 ; skirt
G1 X106.654 Y120.782 E13.82207 ; skirt
G1 X105.702 Y120.439 E13.88967 ; skirt
G1 X104.653 Y119.943 E13.96719 ; skirt
G1 X103.784 Y119.424 E14.03479 ; skirt
G1 X102.809 Y118.704 E14.11575 ; skirt
G1 X101.919 Y117.882 E14.19671 ; skirt
G1 X101.224 Y117.102 E14.26646 ; skirt
G1 X100.513 Y116.121 E14.34742 ; skirt
G1 X99.527 Y114.217 E14.49067 ; skirt
G1 X99.207 Y113.311 E14.55482 ; skirt
G1 X98.914 Y112.136 E14.63577 ; skirt
G1 X98.710 Y109.995 E14.77946 ; skirt
G1 X98.777 Y108.778 E14.86084 ; skirt
G1 X98.919 Y107.835 E14.92458 ; skirt
G1 X99.218 Y106.654 E15.00597 ; skirt
G1 X99.561 Y105.702 E15.07357 ; skirt
G1 X100.057 Y104.653 E15.15109 ; skirt
G1 X100.576 Y103.784 E15.21869 ; skirt
G1 X101.300 Y102.804 E15.30008 ; skirt
G1 X102.025 Y102.019 E15.37144 ; skirt
G1 X102.418 Y102.382 F9000.000 ; move to first skirt point
G1 F1500
G1 X103.232 Y101.643 E15.44494 ; skirt
G1 X104.176 Y100.959 E15.52278 ; skirt
G1 X105.990 Y100.021 E15.65924 ; skirt
G1 X107.974 Y99.438 E15.79734 ; skirt
G1 X110.007 Y99.245 E15.93380 ; skirt
G1 X112.059 Y99.444 E16.07150 ; skirt
G1 X113.189 Y99.730 E16.14934 ; skirt
G1 X114.092 Y100.055 E16.21347 ; skirt
G1 X115.913 Y101.019 E16.35115 ; skirt
G1 X116.851 Y101.710 E16.42900 ; skirt
G1 X117.703 Y102.497 E16.50643 ; skirt
G1 X118.357 Y103.232 E16.57221 ; skirt
G1 X119.037 Y104.171 E16.64964 ; skirt
G1 X119.977 Y105.985 E16.78610 ; skirt
G1 X120.561 Y107.968 E16.92419 ; skirt
G1 X120.755 Y110.001 E17.06066 ; skirt
G1 X120.557 Y112.053 E17.19836 ; skirt
G1 X120.270 Y113.189 E17.27661 ; skirt
G1 X119.947 Y114.086 E17.34033 ; skirt
G1 X119.474 Y115.089 E17.41446 ; skirt
G1 X118.981 Y115.913 E17.47858 ; skirt
G1 X118.290 Y116.851 E17.55643 ; skirt
G1 X117.503 Y117.703 E17.63386 ; skirt
G1 X116.768 Y118.357 E17.69964 ; skirt
G1 X115.829 Y119.037 E17.77707 ; skirt
G1 X114.015 Y119.977 E17.91354 ; skirt
G1 X112.032 Y120.561 E18.05163 ; skirt
G1 X109.999 Y120.755 E18.18809 ; skirt
G1 X107.941 Y120.556 E18.32620 ; skirt
G1 X106.811 Y120.270 E18.40405 ; skirt
G1 X105.908 Y119.945 E18.46817 ; skirt
G1 X104.087 Y118.981 E18.60585 ; skirt
G1 X103.149 Y118.290 E18.68370 ; skirt
G1 X102.297 Y117.503 E18.76113 ; skirt
G1 X101.643 Y116.768 E18.82691 ; skirt
G1 X100.963 Y115.829 E18.90434 ; skirt
G1 X100.023 Y114.015 E19.04081 ; skirt
G1 X99.439 Y112.032 E19.17890 ; skirt
G1 X99.245 Y109.999 E19.31536 ; skirt
G1 X99.444 Y107.941 E19.45347 ; skirt
G1 X99.730 Y106.811 E19.53132 ; skirt
G1 X100.055 Y105.908 E19.59545 ; skirt
G1 X101.019 Y104.087 E19.73312 ; skirt
G1 X101.710 Y103.149 E19.81097 ; skirt
G1 X102.377 Y102.427 E19.87665 ; skirt
G1 E19.37665 F1800.00000 ; retract
G92 E0 ; reset extrusion distance
G1 X105.341 Y104.915 F9000.000 ; move to first brim point
G1 E0.50000 F1800.00000 ; unretract
G1 F1500
G1 X105.874 Y104.474 E0.54621 ; brim
G1 X106.310 Y104.173 E0.58160 ; brim
G1 X106.981 Y103.800 E0.63287 ; brim
G1 X107.544 Y103.556 E0.67384 ; brim
G1 X108.200 Y103.343 E0.71991 ; brim
G1 X108.798 Y103.209 E0.76088 ; brim
G1 X109.589 Y103.116 E0.81407 ; brim
G1 X110.386 Y103.115 E0.86736 ; brim
G1 X110.953 Y103.170 E0.90537 ; brim
G1 X111.733 Y103.324 E0.95852 ; brim
G1 X112.219 Y103.471 E0.99240 ; brim
G1 X112.954 Y103.767 E1.04534 ; brim
G1 X113.405 Y104.003 E1.07934 ; brim
G1 X114.096 Y104.452 E1.13442 ; brim
G1 X114.628 Y104.889 E1.18042 ; brim
G1 X115.085 Y105.341 E1.22337 ; brim
G1 X115.527 Y105.875 E1.26967 ; brim
G1 X115.870 Y106.380 E1.31043 ; brim
G1 X116.233 Y107.048 E1.36121 ; brim
G1 X116.517 Y107.747 E1.41165 ; brim
G1 X116.701 Y108.371 E1.45506 ; brim
G1 X116.845 Y109.154 E1.50828 ; brim
G1 X116.888 Y109.659 E1.54216 ; brim
G1 X116.882 Y110.452 E1.59509 ; brim
G1 X116.829 Y110.956 E1.62897 ; brim
G1 X116.676 Y111.733 E1.68189 ; brim
G1 X116.529 Y112.219 E1.71578 ; brim
G1 X116.233 Y112.954 E1.76871 ; brim
G1 X115.997 Y113.405 E1.80271 ; brim
G1 X115.548 Y114.096 E1.85779 ; brim
G1 X115.111 Y114.628 E1.90379 ; brim
G1 X114.659 Y115.085 E1.94675 ; brim
G1 X114.125 Y115.527 E1.99304 ; brim
G1 X113.620 Y115.870 E2.03380 ; brim
G1 X112.952 Y116.233 E2.08458 ; brim
G1 X112.253 Y116.517 E2.13503 ; brim
G1 X111.629 Y116.701 E2.17843 ; brim
G1 X110.846 Y116.845 E2.23165 ; brim
G1 X110.341 Y116.888 E2.26553 ; brim
G1 X109.548 Y116.882 E2.31846 ; brim
G1 X109.044 Y116.829 E2.35234 ; brim
G1 X108.267 Y116.676 E2.40527 ; brim
G1 X107.781 Y116.529 E2.43915 ; brim
G1 X107.046 Y116.233 E2.49208 ; brim
G1 X106.595 Y115.997 E2.52609 ; brim
G1 X105.904 Y115.548 E2.58117 ; brim
G1 X105.372 Y115.111 E2.62717 ; brim
G1 X104.915 Y114.659 E2.67012 ; brim
G1 X104.473 Y114.125 E2.71642 ; brim
G1 X104.130 Y113.620 E2.75718 ; brim
G1 X103.767 Y112.952 E2.80796 ; brim
G1 X103.483 Y112.253 E2.85840 ; brim
G1 X103.299 Y111.629 E2.90181 ; brim
G1 X103.155 Y110.846 E2.95503 ; brim
G1 X103.112 Y110.341 E2.98891 ; brim
G1 X103.118 Y109.548 E3.04184 ; brim
G1 X103.171 Y109.044 E3.07572 ; brim
G1 X103.324 Y108.267 E3.12864 ; brim
G1 X103.471 Y107.781 E3.16253 ; brim
G1 X103.767 Y107.046 E3.21546 ; brim
G1 X104.003 Y106.595 E3.24946 ; brim
G1 X104.452 Y105.904 E3.30454 ; brim
G1 X104.889 Y105.372 E3.35054 ; brim
G1 X105.299 Y104.958 E3.38949 ; brim
G1 X105.693 Y105.319 F9000.000 ; move to first brim point
G1 F1500
G1 X106.207 Y104.894 E3.43401 ; brim
G1 X106.582 Y104.635 E3.46448 ; brim
G1 X107.230 Y104.274 E3.51399 ; brim
G1 X107.721 Y104.062 E3.54977 ; brim
G1 X108.353 Y103.856 E3.59415 ; brim
G1 X108.876 Y103.740 E3.62994 ; brim
G1 X109.606 Y103.651 E3.67909 ; brim
G1 X110.349 Y103.649 E3.72873 ; brim
G1 X110.863 Y103.698 E3.76321 ; brim
G1 X111.593 Y103.841 E3.81287 ; brim
G1 X112.031 Y103.972 E3.84343 ; brim
G1 X112.718 Y104.249 E3.89293 ; brim
G1 X113.125 Y104.460 E3.92356 ; brim
G1 X113.769 Y104.876 E3.97475 ; brim
G1 X114.261 Y105.279 E4.01727 ; brim
G1 X114.681 Y105.693 E4.05668 ; brim
G1 X115.106 Y106.207 E4.10121 ; brim
G1 X115.406 Y106.649 E4.13687 ; brim
G1 X115.743 Y107.265 E4.18377 ; brim
G1 X116.007 Y107.913 E4.23058 ; brim
G1 X116.177 Y108.483 E4.27027 ; brim
G1 X116.313 Y109.214 E4.31992 ; brim
G1 X116.352 Y109.669 E4.35049 ; brim
G1 X116.348 Y110.410 E4.39999 ; brim
G1 X116.301 Y110.865 E4.43055 ; brim
G1 X116.159 Y111.593 E4.48005 ; brim
G1 X116.028 Y112.031 E4.51062 ; brim
G1 X115.751 Y112.718 E4.56012 ; brim
G1 X115.540 Y113.125 E4.59075 ; brim
G1 X115.124 Y113.769 E4.64194 ; brim
G1 X114.721 Y114.261 E4.68446 ; brim
G1 X114.307 Y114.681 E4.72387 ; brim
G1 X113.793 Y115.106 E4.76840 ; brim
G1 X113.351 Y115.406 E4.80406 ; brim
G1 X112.735 Y115.743 E4.85096 ; brim
G1 X112.087 Y116.007 E4.89777 ; brim
G1 X111.517 Y116.177 E4.93746 ; brim
G1 X110.786 Y116.313 E4.98711 ; brim
G1 X110.331 Y116.352 E5.01768 ; brim
G1 X109.590 Y116.348 E5.06718 ; brim
G1 X109.135 Y116.301 E5.09774 ; brim
G1 X108.407 Y116.159 E5.14724 ; brim
G1 X107.969 Y116.028 E5.17781 ; brim
G1 X107.282 Y115.751 E5.22731 ; brim
G1 X106.875 Y115.540 E5.25793 ; brim
G1 X106.231 Y115.124 E5.30913 ; brim
G1 X105.739 Y114.721 E5.35165 ; brim
G1 X105.319 Y114.307 E5.39106 ; brim
G1 X104.894 Y113.793 E5.43559 ; brim
G1 X104.594 Y113.351 E5.47125 ; brim
G1 X104.257 Y112.735 E5.51814 ; brim
G1 X103.993 Y112.087 E5.56496 ; brim
G1 X103.823 Y111.517 E5.60464 ; brim
G1 X103.687 Y110.786 E5.65430 ; brim
G1 X103.648 Y110.331 E5.68487 ; brim
G1 X103.652 Y109.590 E5.73437 ; brim
G1 X103.699 Y109.135 E5.76493 ; brim
G1 X103.841 Y108.407 E5.81443 ; brim
G1 X103.972 Y107.969 E5.84500 ; brim
G1 X104.249 Y107.282 E5.89450 ; brim
G1 X104.460 Y106.875 E5.92512 ; brim
G1 X104.876 Y106.231 E5.97632 ; brim
G1 X105.279 Y105.739 E6.01884 ; brim
G1 X105.651 Y105.362 E6.05424 ; brim
G1 X106.045 Y105.723 F9000.000 ; move to first brim point
G1 F1500
G1 X106.539 Y105.314 E6.09704 ; brim
G1 X106.875 Y105.084 E6.12425 ; brim
G1 X107.478 Y104.749 E6.17032 ; brim
G1 X107.899 Y104.567 E6.20096 ; brim
G1 X108.507 Y104.370 E6.24366 ; brim
G1 X108.955 Y104.269 E6.27434 ; brim
G1 X109.625 Y104.187 E6.31945 ; brim
G1 X110.314 Y104.184 E6.36545 ; brim
G1 X110.775 Y104.227 E6.39640 ; brim
G1 X111.453 Y104.358 E6.44256 ; brim
G1 X111.844 Y104.474 E6.46980 ; brim
G1 X112.485 Y104.731 E6.51589 ; brim
G1 X112.847 Y104.918 E6.54313 ; brim
G1 X113.442 Y105.300 E6.59037 ; brim
G1 X113.912 Y105.686 E6.63101 ; brim
G1 X114.277 Y106.045 E6.66524 ; brim
G1 X114.685 Y106.539 E6.70802 ; brim
G1 X114.943 Y106.918 E6.73864 ; brim
G1 X115.253 Y107.481 E6.78161 ; brim
