; generated by Slic3r 1.2.9 on 2018-05-16 at 10:36:26

; external perimeters extrusion width = 0.40mm
; perimeters extrusion width = 0.67mm
; infill extrusion width = 0.67mm
; solid infill extrusion width = 0.67mm
; top infill extrusion width = 0.67mm
; support material extrusion width = 0.40mm

M107
M190 S55 ; set bed temperature
M104 S200 ; set temperature
G28 ; home all axes
G1 Z5 F5000 ; lift nozzle

M109 S200 ; wait for temperature to be reached
G21 ; set units to millimeters
G90 ; use absolute coordinates
M82 ; use absolute distances for extrusion
G92 E0
G1 Z0.350 F4200.000
G1 E-4.50000 F2700.00000
G92 E0
G1 X64.198 Y86.114 F4200.000
G1 E4.50000 F2700.00000
G1 X66.111 Y84.849 E4.72940 F1800.000
G1 X68.754 Y84.299 E4.99938
G1 X131.301 Y84.299 E11.25546
G1 X133.560 Y84.696 E11.48486 F1800.000
G1 X135.548 Y85.839 E11.71426
G1 X137.027 Y87.592 E11.94365
G1 X137.851 Y89.935 E12.19206
G1 X137.915 Y90.359 E12.23499
G1 X137.989 Y91.300 E12.32937
G1 X137.991 Y108.835 E14.08334
G1 X137.289 Y111.804 E14.38845
G1 X137.168 Y112.045 E14.41539
G1 X135.801 Y113.886 E14.64479
G1 X133.888 Y115.151 E14.87418
G1 X131.246 Y115.700 E15.14407
G1 X68.699 Y115.700 E21.40015
G1 X66.440 Y115.303 E21.62955
G1 X64.452 Y114.160 E21.85895
G1 X62.973 Y112.407 E22.08834
G1 X62.148 Y110.063 E22.33693
G1 X62.084 Y109.638 E22.37988
G1 X62.011 Y108.699 E22.47407
G1 X62.009 Y91.164 E24.22804
G1 X62.711 Y88.195 E24.53315
G1 X62.831 Y87.955 E24.55997
G1 X64.163 Y86.162 E24.78337
G1 E20.28337 F2700.00000
G92 E0
G1 X68.635 Y91.161 F4200.000
G1 E4.50000 F2700.00000
G1 X68.753 Y90.927 E4.51361 F1800.000
G1 X69.118 Y90.927 E4.53261
G1 X68.635 Y91.889 E4.58861
G1 X68.635 Y92.618 F4200.000
G1 X69.483 Y90.927 E4.68701 F1800.000
G1 X69.848 Y90.927 E4.70600
G1 X68.635 Y93.347 E4.84679
G1 X68.635 Y94.076 F4200.000
G1 X70.214 Y90.927 E5.02996 F1800.000
G1 X70.579 Y90.927 E5.04896
G1 X68.635 Y94.805 E5.27452
G1 X68.635 Y95.533 F4200.000
G1 X70.944 Y90.927 E5.54248 F1800.000
G1 X71.309 Y90.927 E5.56148
G1 X68.635 Y96.262 E5.87183
G1 X68.635 Y96.991 F4200.000
G1 X71.675 Y90.927 E6.22457 F1800.000
G1 X72.040 Y90.927 E6.24356
G1 X68.635 Y97.720 E6.63870
G1 X68.635 Y98.448 F4200.000
G1 X72.405 Y90.927 E7.07622 F1800.000
G1 X72.770 Y90.927 E7.09521
G1 X68.635 Y99.177 E7.57513
G1 X68.635 Y99.906 F4200.000
G1 X73.136 Y90.927 E8.09743 F1800.000
G1 X73.501 Y90.927 E8.11643
G1 X68.635 Y100.635 E8.68113
G1 X68.635 Y101.363 F4200.000
G1 X73.866 Y90.927 E9.28821 F1800.000
G1 X74.231 Y90.927 E9.30721
G1 X68.635 Y102.092 E9.95669
G1 X68.635 Y102.821 F4200.000
G1 X74.597 Y90.927 E10.64856 F1800.000
G1 X74.962 Y90.927 E10.66755
G1 X68.635 Y103.550 E11.40181
G1 X68.635 Y104.278 F4200.000
G1 X75.327 Y90.927 E12.17847 F1800.000
G1 X75.692 Y90.927 E12.19746
G1 X68.635 Y105.007 E13.01650
G1 X68.635 Y105.736 F4200.000
G1 X76.058 Y90.927 E13.87794 F1800.000
G1 X76.423 Y90.927 E13.89693
G1 X68.635 Y106.465 E14.80076
G1 X68.635 Y107.193 F4200.000
G1 X76.788 Y90.927 E15.74698 F1800.000
G1 X77.153 Y90.927 E15.76597
G1 X68.635 Y107.922 E16.75458
G1 X68.635 Y108.651 F4200.000
G1 X77.519 Y90.927 E17.78558 F1800.000
G1 X77.884 Y90.927 E17.80457
G1 X68.789 Y109.073 E18.86010
G1 X69.154 Y109.073 E18.87910
G1 X78.249 Y90.927 E19.93463
G1 X78.614 Y90.927 E19.95362
G1 X69.520 Y109.073 E21.00915
G1 X69.885 Y109.073 E21.02815
G1 X78.980 Y90.927 E22.08368
G1 X79.345 Y90.927 E22.10267
G1 X70.250 Y109.073 E23.15820
G1 X70.615 Y109.073 E23.17720
G1 X79.710 Y90.927 E24.23273
G1 X80.075 Y90.927 E24.25172
G1 X70.981 Y109.073 E25.30725
G1 X71.346 Y109.073 E25.32625
G1 X80.441 Y90.927 E26.38178
G1 X80.806 Y90.927 E26.40077
G1 X71.711 Y109.073 E27.45630
G1 X72.076 Y109.073 E27.47530
G1 X81.171 Y90.927 E28.53083
G1 X81.536 Y90.927 E28.54982
G1 X72.442 Y109.073 E29.60535
G1 X72.807 Y109.073 E29.62435
G1 X81.902 Y90.927 E30.67988
G1 X82.267 Y90.927 E30.69887
G1 X73.172 Y109.073 E31.75440
G1 X73.537 Y109.073 E31.77340
G1 X82.632 Y90.927 E32.82893
G1 X82.997 Y90.927 E32.84792
G1 X73.903 Y109.073 E33.90345
G1 X74.268 Y109.073 E33.92245
G1 X83.363 Y90.927 E34.97798
G1 X83.728 Y90.927 E34.99697
G1 X74.633 Y109.073 E36.05250
G1 X74.998 Y109.073 E36.07150
G1 X84.093 Y90.927 E37.12703
G1 X84.458 Y90.927 E37.14602
G1 X75.364 Y109.073 E38.20155
G1 X75.729 Y109.073 E38.22055
G1 X84.824 Y90.927 E39.27608
G1 X85.189 Y90.927 E39.29507
G1 X76.094 Y109.073 E40.35060
G1 X76.459 Y109.073 E40.36960
G1 X85.554 Y90.927 E41.42513
G1 X85.919 Y90.927 E41.44412
G1 X76.825 Y109.073 E42.49965
G1 X77.190 Y109.073 E42.51865
G1 X86.285 Y90.927 E43.57418
G1 X86.650 Y90.927 E43.59317
G1 X77.555 Y109.073 E44.64870
G1 X77.920 Y109.073 E44.66770
G1 X87.015 Y90.927 E45.72323
G1 X87.380 Y90.927 E45.74222
G1 X78.286 Y109.073 E46.79775
G1 X78.651 Y109.073 E46.81675
G1 X87.746 Y90.927 E47.87228
G1 X88.111 Y90.927 E47.89127
G1 X79.016 Y109.073 E48.94680
G1 X79.381 Y109.073 E48.96580
G1 X88.476 Y90.927 E50.02133
G1 X88.841 Y90.927 E50.04032
G1 X79.747 Y109.073 E51.09585
G1 X80.112 Y109.073 E51.11485
G1 X89.207 Y90.927 E52.17038
G1 X89.572 Y90.927 E52.18937
G1 X80.477 Y109.073 E53.24490
G1 X80.842 Y109.073 E53.26390
G1 X89.937 Y90.927 E54.31943
G1 X90.302 Y90.927 E54.33842
G1 X81.208 Y109.073 E55.39395
G1 X81.573 Y109.073 E55.41295
G1 X90.668 Y90.927 E56.46848
G1 X91.033 Y90.927 E56.48747
G1 X81.938 Y109.073 E57.54300
G1 X82.303 Y109.073 E57.56200
G1 X91.398 Y90.927 E58.61753
G1 X91.763 Y90.927 E58.63652
G1 X82.669 Y109.073 E59.69205
G1 X83.034 Y109.073 E59.71105
G1 X92.129 Y90.927 E60.76658
G1 X92.494 Y90.927 E60.78557
G1 X83.399 Y109.073 E61.84110
G1 X83.764 Y109.073 E61.86010
G1 X92.859 Y90.927 E62.91563
G1 X93.224 Y90.927 E62.93462
G1 X84.130 Y109.073 E63.99016
G1 X84.495 Y109.073 E64.00915
G1 X93.590 Y90.927 E65.06468
G1 X93.955 Y90.927 E65.08367
G1 X84.860 Y109.073 E66.13921
G1 X85.226 Y109.073 E66.15820
G1 X94.320 Y90.927 E67.21373
G1 X94.685 Y90.927 E67.23272
G1 X85.591 Y109.073 E68.28826
G1 X85.956 Y109.073 E68.30725
G1 X95.051 Y90.927 E69.36278
G1 X95.416 Y90.927 E69.38177
G1 X86.321 Y109.073 E70.43731
G1 X86.687 Y109.073 E70.45630
G1 X95.781 Y90.927 E71.51183
G1 X96.147 Y90.927 E71.53083
G1 X87.052 Y109.073 E72.58636
G1 X87.417 Y109.073 E72.60535
G1 X96.512 Y90.927 E73.66088
G1 X96.877 Y90.927 E73.67988
G1 X87.782 Y109.073 E74.73541
G1 X88.148 Y109.073 E74.75440
G1 X97.242 Y90.927 E75.80993
G1 X97.608 Y90.927 E75.82893
G1 X88.513 Y109.073 E76.88446
G1 X88.878 Y109.073 E76.90345
G1 X97.973 Y90.927 E77.95898
G1 X98.338 Y90.927 E77.97798
G1 X89.243 Y109.073 E79.03351
G1 X89.609 Y109.073 E79.05250
G1 X98.703 Y90.927 E80.10803
G1 X99.069 Y90.927 E80.12703
G1 X89.974 Y109.073 E81.18256
G1 X90.339 Y109.073 E81.20155
G1 X99.434 Y90.927 E82.25708
G1 X99.799 Y90.927 E82.27608
G1 X90.704 Y109.073 E83.33161
G1 X91.070 Y109.073 E83.35060
G1 X100.164 Y90.927 E84.40613
G1 X100.530 Y90.927 E84.42513
G1 X91.435 Y109.073 E85.48066
G1 X91.800 Y109.073 E85.49965
G1 X100.895 Y90.927 E86.55518
G1 X101.260 Y90.927 E86.57418
G1 X92.165 Y109.073 E87.62971
G1 X92.531 Y109.073 E87.64870
G1 X101.625 Y90.927 E88.70423
G1 X101.991 Y90.927 E88.72323
G1 X92.896 Y109.073 E89.77876
G1 X93.261 Y109.073 E89.79775
G1 X102.356 Y90.927 E90.85328
G1 X102.721 Y90.927 E90.87228
G1 X93.626 Y109.073 E91.92781
G1 X93.992 Y109.073 E91.94680
G1 X103.086 Y90.927 E93.00233
G1 X103.452 Y90.927 E93.02133
G1 X94.357 Y109.073 E94.07686
G1 X94.722 Y109.073 E94.09585
G1 X103.817 Y90.927 E95.15138
G1 X104.182 Y90.927 E95.17038
G1 X95.087 Y109.073 E96.22591
G1 X95.453 Y109.073 E96.24490
G1 X104.547 Y90.927 E97.30043
G1 X104.913 Y90.927 E97.31943
G1 X95.818 Y109.073 E98.37496
G1 X96.183 Y109.073 E98.39395
G1 X105.278 Y90.927 E99.44948
G1 X105.643 Y90.927 E99.46848
G1 X96.548 Y109.073 E100.52401
G1 X96.914 Y109.073 E100.54300
G1 X106.008 Y90.927 E101.59853
G1 X106.374 Y90.927 E101.61753
G1 X97.279 Y109.073 E102.67306
G1 X97.644 Y109.073 E102.69205
G1 X106.739 Y90.927 E103.74758
G1 X107.104 Y90.927 E103.76658
G1 X98.009 Y109.073 E104.82211
G1 X98.375 Y109.073 E104.84110
G1 X107.469 Y90.927 E105.89663
G1 X107.835 Y90.927 E105.91563
G1 X98.740 Y109.073 E106.97116
G1 X99.105 Y109.073 E106.99015
G1 X108.200 Y90.927 E108.04568
G1 X108.565 Y90.927 E108.06468
G1 X99.470 Y109.073 E109.12021
G1 X99.836 Y109.073 E109.13920
G1 X108.930 Y90.927 E110.19473
G1 X109.296 Y90.927 E110.21373
G1 X100.201 Y109.073 E111.26926
G1 X100.566 Y109.073 E111.28825
G1 X109.661 Y90.927 E112.34378
G1 X110.026 Y90.927 E112.36278
G1 X100.931 Y109.073 E113.41831
G1 X101.297 Y109.073 E113.43730
G1 X110.391 Y90.927 E114.49283
G1 X110.757 Y90.927 E114.51183
G1 X101.662 Y109.073 E115.56736
G1 X102.027 Y109.073 E115.58635
G1 X111.122 Y90.927 E116.64188
G1 X111.487 Y90.927 E116.66088
G1 X102.392 Y109.073 E117.71641
G1 X102.758 Y109.073 E117.73540
G1 X111.852 Y90.927 E118.79093
G1 X112.218 Y90.927 E118.80993
G1 X103.123 Y109.073 E119.86546
G1 X103.488 Y109.073 E119.88445
G1 X112.583 Y90.927 E120.93998
G1 X112.948 Y90.927 E120.95898
G1 X103.853 Y109.073 E122.01451
G1 X104.219 Y109.073 E122.03350
G1 X113.313 Y90.927 E123.08904
G1 X113.679 Y90.927 E123.10803
G1 X104.584 Y109.073 E124.16356
G1 X104.949 Y109.073 E124.18255
G1 X114.044 Y90.927 E125.23809
G1 X114.409 Y90.927 E125.25708
G1 X105.314 Y109.073 E126.31261
G1 X105.680 Y109.073 E126.33160
G1 X114.774 Y90.927 E127.38714
G1 X115.140 Y90.927 E127.40613
G1 X106.045 Y109.073 E128.46166
G1 X106.410 Y109.073 E128.48065
G1 X115.505 Y90.927 E129.53619
G1 X115.870 Y90.927 E129.55518
G1 X106.775 Y109.073 E130.61071
G1 X107.141 Y109.073 E130.62971
G1 X116.235 Y90.927 E131.68524
G1 X116.601 Y90.927 E131.70423
G1 X107.506 Y109.073 E132.75976
G1 X107.871 Y109.073 E132.77876
G1 X116.966 Y90.927 E133.83429
G1 X117.331 Y90.927 E133.85328
G1 X108.236 Y109.073 E134.90881
G1 X108.602 Y109.073 E134.92781
G1 X117.696 Y90.927 E135.98334
G1 X118.062 Y90.927 E136.00233
G1 X108.967 Y109.073 E137.05786
G1 X109.332 Y109.073 E137.07686
G1 X118.427 Y90.927 E138.13239
G1 X118.792 Y90.927 E138.15138
G1 X109.697 Y109.073 E139.20691
G1 X110.063 Y109.073 E139.22591
G1 X119.157 Y90.927 E140.28144
G1 X119.523 Y90.927 E140.30043
G1 X110.428 Y109.073 E141.35596
G1 X110.793 Y109.073 E141.37496
G1 X119.888 Y90.927 E142.43049
G1 X120.253 Y90.927 E142.44948
G1 X111.158 Y109.073 E143.50501
G1 X111.524 Y109.073 E143.52401
G1 X120.618 Y90.927 E144.57954
G1 X120.984 Y90.927 E144.59853
G1 X111.889 Y109.073 E145.65406
G1 X112.254 Y109.073 E145.67306
G1 X121.349 Y90.927 E146.72859
G1 X121.714 Y90.927 E146.74758
G1 X112.619 Y109.073 E147.80311
G1 X112.985 Y109.073 E147.82211
G1 X122.079 Y90.927 E148.87764
G1 X122.445 Y90.927 E148.89663
G1 X113.350 Y109.073 E149.95216
G1 X113.715 Y109.073 E149.97116
G1 X122.810 Y90.927 E151.02669
G1 X123.175 Y90.927 E151.04568
G1 X114.081 Y109.073 E152.10121
G1 X114.446 Y109.073 E152.12021
G1 X123.540 Y90.927 E153.17574
G1 X123.906 Y90.927 E153.19473
G1 X114.811 Y109.073 E154.25026
G1 X115.176 Y109.073 E154.26926
G1 X124.271 Y90.927 E155.32479
G1 X124.636 Y90.927 E155.34378
G1 X115.542 Y109.073 E156.39931
G1 X115.907 Y109.073 E156.41831
G1 X125.002 Y90.927 E157.47384
G1 X125.367 Y90.927 E157.49283
G1 X116.272 Y109.073 E158.54836
G1 X116.637 Y109.073 E158.56736
G1 X125.732 Y90.927 E159.62289
G1 X126.097 Y90.927 E159.64188
G1 X117.003 Y109.073 E160.69741
G1 X117.368 Y109.073 E160.71641
G1 X126.463 Y90.927 E161.77194
G1 X126.828 Y90.927 E161.79093
G1 X117.733 Y109.073 E162.84646
G1 X118.098 Y109.073 E162.86546
G1 X127.193 Y90.927 E163.92099
G1 X127.558 Y90.927 E163.93998
G1 X118.464 Y109.073 E164.99551
G1 X118.829 Y109.073 E165.01451
G1 X127.924 Y90.927 E166.07004
G1 X128.289 Y90.927 E166.08903
G1 X119.194 Y109.073 E167.14456
G1 X119.559 Y109.073 E167.16356
G1 X128.654 Y90.927 E168.21909
G1 X129.019 Y90.927 E168.23808
G1 X119.925 Y109.073 E169.29361
G1 X120.290 Y109.073 E169.31261
G1 X129.385 Y90.927 E170.36814
G1 X129.750 Y90.927 E170.38713
G1 X120.655 Y109.073 E171.44267
G1 X121.020 Y109.073 E171.46166
G1 X130.115 Y90.927 E172.51719
G1 X130.480 Y90.927 E172.53618
G1 X121.386 Y109.073 E173.59172
G1 X121.751 Y109.073 E173.61071
G1 X130.846 Y90.927 E174.66624
G1 X131.211 Y90.927 E174.68524
G1 X122.116 Y109.073 E175.74077
G1 X122.481 Y109.073 E175.75976
G1 X131.365 Y91.348 E176.79077
G1 X131.365 Y92.077 F4200.000
G1 X122.847 Y109.073 E177.77939 F1800.000
G1 X123.212 Y109.073 E177.79838
G1 X131.365 Y92.806 E178.74461
G1 X131.365 Y93.535 F4200.000
G1 X123.577 Y109.073 E179.64844 F1800.000
G1 X123.942 Y109.073 E179.66744
G1 X131.365 Y94.263 E180.52888
G1 X131.365 Y94.992 F4200.000
G1 X124.308 Y109.073 E181.34793 F1800.000
G1 X124.673 Y109.073 E181.36693
G1 X131.365 Y95.721 E182.14359
G1 X131.365 Y96.450 F4200.000
G1 X125.038 Y109.073 E182.87786 F1800.000
G1 X125.403 Y109.073 E182.89686
G1 X131.365 Y97.178 E183.58873
G1 X131.365 Y97.907 F4200.000
G1 X125.769 Y109.073 E184.23822 F1800.000
G1 X126.134 Y109.073 E184.25722
G1 X131.365 Y98.636 E184.86432
G1 X131.365 Y99.365 F4200.000
G1 X126.499 Y109.073 E185.42902 F1800.000
G1 X126.864 Y109.073 E185.44802
G1 X131.365 Y100.093 E185.97033
G1 X131.365 Y100.822 F4200.000
G1 X127.230 Y109.073 E186.45026 F1800.000
G1 X127.595 Y109.073 E186.46925
G1 X131.365 Y101.551 E186.90678
G1 X131.365 Y102.280 F4200.000
G1 X127.960 Y109.073 E187.30192 F1800.000
G1 X128.325 Y109.073 E187.32092
G1 X131.365 Y103.008 E187.67367
G1 X131.365 Y103.737 F4200.000
G1 X128.691 Y109.073 E187.98403 F1800.000
G1 X129.056 Y109.073 E188.00302
G1 X131.365 Y104.466 E188.27099
G1 X131.365 Y105.195 F4200.000
G1 X129.421 Y109.073 E188.49657 F1800.000
G1 X129.786 Y109.073 E188.51556
G1 X131.365 Y105.923 E188.69875
G1 X131.365 Y106.652 F4200.000
G1 X130.152 Y109.073 E188.83955 F1800.000
G1 X130.517 Y109.073 E188.85854
G1 X131.365 Y107.381 E188.95694
G1 X131.365 Y108.110 F4200.000
G1 X130.882 Y109.073 E189.01296 F1800.000
G1 X131.365 Y108.838 E189.04085
G1 X131.247 Y109.073 E189.05447
M140 S45 ; wait for bed temperature to be reached
G1 Z0.650 F4200.000
G1 X131.246 Y109.075 F4200.000
G1 X131.366 Y108.835 E189.06683 F3600.000
G1 X130.869 Y109.075 E189.09225
G1 X131.366 Y108.084 E189.14332
G1 X131.366 Y107.332 F4200.000
G1 X130.492 Y109.075 E189.23312 F3600.000
G1 X130.116 Y109.075 E189.25047
G1 X131.366 Y106.580 E189.37899
G1 X131.366 Y105.828 F4200.000
G1 X129.739 Y109.075 E189.54623 F3600.000
G1 X129.362 Y109.075 E189.56358
G1 X131.366 Y105.077 E189.76954
G1 X131.366 Y104.325 F4200.000
G1 X128.985 Y109.075 E190.01423 F3600.000
G1 X128.608 Y109.075 E190.03158
G1 X131.366 Y103.573 E190.31498
G1 X131.366 Y102.821 F4200.000
G1 X128.232 Y109.075 E190.63710 F3600.000
G1 X127.855 Y109.075 E190.65445
G1 X131.366 Y102.070 E191.01529
G1 X131.366 Y101.318 F4200.000
G1 X127.478 Y109.075 E191.41486 F3600.000
G1 X127.101 Y109.075 E191.43221
G1 X131.366 Y100.566 E191.87049
G1 X131.366 Y99.814 F4200.000
G1 X126.725 Y109.075 E192.34750 F3600.000
G1 X126.348 Y109.075 E192.36485
G1 X131.366 Y99.063 E192.88057
G1 X131.366 Y98.311 F4200.000
G1 X125.971 Y109.075 E193.43502 F3600.000
G1 X125.594 Y109.075 E193.45237
G1 X131.366 Y97.559 E194.04554
G1 X131.366 Y96.807 F4200.000
G1 X125.217 Y109.075 E194.67742 F3600.000
G1 X124.841 Y109.075 E194.69477
G1 X131.366 Y96.055 E195.36538
G1 X131.366 Y95.304 F4200.000
G1 X124.464 Y109.075 E196.07471 F3600.000
G1 X124.087 Y109.075 E196.09206
G1 X131.366 Y94.552 E196.84011
G1 X131.366 Y93.800 F4200.000
G1 X123.710 Y109.075 E197.62688 F3600.000
G1 X123.333 Y109.075 E197.64423
G1 X131.366 Y93.048 E198.46972
G1 X131.366 Y92.297 F4200.000
G1 X122.957 Y109.075 E199.33393 F3600.000
G1 X122.580 Y109.075 E199.35128
G1 X131.366 Y91.545 E200.25421
G1 X131.301 Y90.924 E200.28297
G1 X122.203 Y109.075 E201.21789
G1 X121.826 Y109.075 E201.23524
G1 X130.924 Y90.924 E202.17015
G1 X130.547 Y90.924 E202.18750
G1 X121.449 Y109.075 E203.12242
G1 X121.073 Y109.075 E203.13977
G1 X130.170 Y90.924 E204.07469
G1 X129.794 Y90.924 E204.09204
G1 X120.696 Y109.075 E205.02696
G1 X120.319 Y109.075 E205.04431
G1 X129.417 Y90.924 E205.97922
G1 X129.040 Y90.924 E205.99657
G1 X119.942 Y109.075 E206.93149
G1 X119.566 Y109.075 E206.94884
G1 X128.663 Y90.924 E207.88376
G1 X128.286 Y90.924 E207.90111
